!!!!SEGMENT: pl-cz--iii-692--001-007_volckmer-augustin--miserere-duetto-docebo-iniquos.krn
!!!cenid: 17xx:1154
!!!COM: Volckmer, Augustin
!!!COM-rismID: pe30020656
!!!CDT: 1755-~1820
!!!CNT:
!!!OPR: Miserere
!!!OTL: Duetto - Docebo iniquos
!!!OMV: 007
!!!PDT:
!!!AGN: Sacred
!!!SMS-siglum: PL-CZ
!!!SMS-shelfmark: III-692
!!!SMS-shelfwork: 001-007 M
!!!SMS-variant:
!!!SMS-altvar:
!!!NIFC-rismSourceID: 300001392
!!!NIFC-rismChildID: 300001392
!!!NIFC-islandoraID: pl-cz:40420
!!!URL-pdf-islandora: https://repozytorium.nifc.pl/islandora/object/pl-cz%3A40420/datastream/PDF/view
!!!URL-scan: https://polish.musicsources.pl/pl/lokalizacje/galeria/rekopisy/6989/1 @EN{Scan on Polish Music Sources Website} @PL{Skany w portalu Dziedzictwo Muzyki Polskiej w otwartym dostępie}
!!!ONB-nifc: UWAGA: części Miserere: 1. Miserere, 2. Recitativo – Amplius lava me, 3. Aria – Quoniam,
!!!AIN: 1 alto 6 empty 1 organ 1 tenor 2 violn 1 vox
!!!key: B-
**kern	**dynam	**kern	**dynam	**kern	**dynam	**kern	**dynam	**kern	**kern	**text	**dynam	**kern	**text	**dynam	**kern	**kern	**kern	**kern	**kern
*part12	*part12	*part11	*part11	*part10	*part10	*part9	*part9	*part8	*part7	*part7	*part7	*part6	*part6	*part6	*part5	*part4	*part3	*part2	*part1
*staff12	*	*staff11	*	*staff10	*	*staff9	*	*staff8	*staff7	*staff7	*	*staff6	*staff6	*	*staff5	*staff4	*staff3	*staff2	*staff1
*Iorgan	*	*Iempty	*	*Ivioln	*	*Ivioln	*	*Iempty	*Itenor	*	*	*Ialto	*	*	*Ivox	*Iempty	*Iempty	*Iempty	*Iempty
*I"Organo.	*	*I"Viola obl:	*	*I"Violino Secondo	*	*I"Violino Primo	*	*I"Basſo	*I"Tenore	*	*	*I"Alto.	*	*	*I"Canto	*I"Cornu Secondo in Dis	*I"Cornu Primo. in Dis	*I"Oboa Seconda	*I"Oboa Prima.
*I'org	*	*I'vla obl	*	*I'vl II	*	*I'vl I	*	*I'B	*I'T	*	*	*I'A	*	*	*I'S	*I'cor II	*I'cor I	*I'ob II	*I'ob I
*ICklav	*	*ICstr	*	*ICstr	*	*ICstr	*	*ICvox	*ICvox	*	*	*ICvox	*	*	*ICvox	*ICbras	*ICbras	*ICww	*ICww
*clefF4	*	*clefC3	*	*clefG2	*	*clefG2	*	*clefF4	*clefC4	*	*	*clefC3	*	*	*clefC1	*clefG2	*clefG2	*clefG2	*clefG2
*	*	*	*	*	*	*	*	*	*	*	*	*	*	*	*	*ITrd5c9	*ITrd5c9	*	*
*k[b-e-]	*	*k[b-e-]	*	*k[b-e-]	*	*k[b-e-]	*	*k[b-e-]	*k[b-e-]	*	*	*k[b-e-]	*	*	*k[b-e-]	*k[b-e-]	*k[b-e-]	*k[b-e-]	*k[b-e-]
*B-:	*	*B-:	*	*B-:	*	*B-:	*	*B-:	*B-:	*	*	*B-:	*	*	*B-:	*B-:	*B-:	*B-:	*B-:
*M4/4	*	*M4/4	*	*M4/4	*	*M4/4	*	*M4/4	*M4/4	*	*	*M4/4	*	*	*M4/4	*M4/4	*M4/4	*M4/4	*M4/4
*met(c)	*	*met(c)	*	*met(c)	*	*met(c)	*	*met(c)	*met(c)	*	*	*met(c)	*	*	*met(c)	*met(c)	*met(c)	*met(c)	*met(c)
!!LO:TX:t=P:problem: all\right or middle	!	!	!	!	!	!	!	!	!	!	!	!	!	!	!	!	!	!	!
!!LO:TX:t=P:problem: błąd wyświetlania Verovio - tekst ukazuje się pod głosami, które nie mają spinów dla tekstu	!	!	!	!	!	!	!	!	!	!	!	!	!	!	!	!	!	!	!
!LO:TX:b:t=Docebo	!	!	!	!	!	!	!	!	!	!	!	!	!	!	!	!	!	!	!
!LO:TX:a:B:t=Poco Ada gio	!	!	!	!	!	!LO:TX:b:t=Aria\nDocebo.	!	!LO:TX:a:t=Alto et Tenore Solo	!LO:TX:a:B:t=Poco Adagio	!	!	!LO:TX:b:t=Duetto	!	!	!	!	!	!	!
!LO:TX:a:t=Duetto	!	!	!	!LO:TX:b:t=Aria	!	!LO:TX:a:B:t=Poco Adagio	!	!LO:TX:a:t=Docebo Tacet	!LO:TX:t=P:problem:brak przedtaktu	!	!	!LO:TX:t=P:problem:brak przedtaktu	!	!	!LO:TX:a:t=Aria Tenore et Alto Solo Tacet.	!LO:TX:a:t=Docebo Tacet	!LO:TX:a:t=DoCebo Tacet	!LO:TX:a:t=Aria et Recitat Tacet	!LO:TX:a:t=Aria et Recitativ Tacet
!	!	!	!	!	!	!	!	!	!	!	!	!LO:TX:t=P:problem:metrum 2/4 przekreslone i zapisane C	!	!	!	!	!	!	!
!	!	!	!	!	!	!LO:TX:t=P:problem:nad kluczem ołówkiem zapisane N|o 3.	!	!	!LO:TX:t=P:problem:pod metrum ołówkiem zapisane No 3.	!	!	!	!	!	!	!	!	!	!
!	!	!	!	!	!	!	!	!	!	!	!	!LO:TX:t=P:problem:przed materiałem muzycznym ołówkiem zapisane No 3..	!	!	!	!	!	!	!
!	!	!LO:TX:t=P:problem:nad pierwszym systemem ołówkiem dopisane Docebo	!	!LO:TX:t=P:problem: nad metrum ołówkiem dopisane 3 oraz obok Docebo	!	!	!	!	!	!	!	!	!	!	!	!	!	!	!
!	!	!LO:TX:b:t=Aria	!	!	!	!	!	!	!	!	!	!	!	!	!	!	!	!	!
8r	.	8r	.	16B-/LL	.	16dd\LL	.	8ryy	8ryy	.	.	8ryy	.	.	8ryy	8ryy	8ryy	8ryy	8ryy
.	.	.	.	16c/JJ	.	16ee-\JJ	.	.	.	.	.	.	.	.	.	.	.	.	.
=1	=1	=1	=1	=1	=1	=1	=1	=1	=1	=1	=1	=1	=1	=1	=1	=1	=1	=1	=1
!LO:TX:a:i:t=Solo	!	!LO:TX:a:B:t=Poco Adagio	!	!LO:TX:a:B:t=Poco Adagio	!	!	!	!	!	!	!	!LO:TX:a:B:t=Poco Adagio	!	!	!	!	!	!	!
4BB-/	.	8.f\L	.	8.d/L	.	8.ff\L	.	1ryy	1r	.	.	1r	.	.	1ryy	1ryy	1ryy	1ryy	1ryy
.	.	16f\Jk	.	16d/Jk	.	16b-\Jk	.	.	.	.	.	.	.	.	.	.	.	.	.
8F\L	.	16d\LL	.	(16f/LL	.	(16dd\LL	.	.	.	.	.	.	.	.	.	.	.	.	.
.	.	(16c\	.	16e-/	.	16cc\	.	.	.	.	.	.	.	.	.	.	.	.	.
8FF/J	.	16B-\	.	16d/	.	16b-\	.	.	.	.	.	.	.	.	.	.	.	.	.
.	.	16A\JJ)	.	16c/JJ)	.	16a\JJ)	.	.	.	.	.	.	.	.	.	.	.	.	.
!	!	!LO:TX:t=P:problem:mixed beam	!	!	!	!	!	!	!	!	!	!	!	!	!	!	!	!	!
8BB-/	.	8A/L	.	8d/L	.	8b-/L	.	.	.	.	.	.	.	.	.	.	.	.	.
8r	.	8f\	.	8f/	.	8f/	.	.	.	.	.	.	.	.	.	.	.	.	.
8r	.	8d\	.	8d/	.	8d/	.	.	.	.	.	.	.	.	.	.	.	.	.
8BB-/	.	8B-\J	.	8B-/J	.	8B-/J	.	.	.	.	.	.	.	.	.	.	.	.	.
=2	=2	=2	=2	=2	=2	=2	=2	=2	=2	=2	=2	=2	=2	=2	=2	=2	=2	=2	=2
!LO:TX:t=P:problem:nad t. 2 zapisano ołówkiem N|o 3.	!	!	!	!	!	!	!LO:DY:b:t=p&colon;	!	!	!	!	!	!	!	!	!	!	!	!
!	!	!	!	!	!LO:DY:b	!	!	!	!	!	!	!	!	!	!	!	!	!	!
!	!LO:DY:b	!	!	!	!	!	!	!	!	!	!	!	!	!	!	!	!	!	!
4E-\	p	8.g\L	.	8.ee-\L	p	8.gg\L	p	1ryy	1r	.	.	1r	.	.	1ryy	1ryy	1ryy	1ryy	1ryy
.	.	16a\Jk	.	16ff\Jk	.	16aa\Jk	.	.	.	.	.	.	.	.	.	.	.	.	.
.	.	8qqcc/	.	8qqaa/	.	8qqccc/	.	.	.	.	.	.	.	.	.	.	.	.	.
8E-\L	.	8b-\L	.	8gg\L	.	8bb-\L	.	.	.	.	.	.	.	.	.	.	.	.	.
8G\J	.	16a\L	.	16ff\L	.	16aa\L	.	.	.	.	.	.	.	.	.	.	.	.	.
.	.	16g\JJ	.	16ee-\JJ	.	16gg\JJ	.	.	.	.	.	.	.	.	.	.	.	.	.
.	.	.	.	.	.	8qqaa/	.	.	.	.	.	.	.	.	.	.	.	.	.
4ryy	.	(8g\L	.	8ee-\L	.	8gg\L	.	.	.	.	.	.	.	.	.	.	.	.	.
.	.	8f\J)	.	8dd\J	.	8ff\J	.	.	.	.	.	.	.	.	.	.	.	.	.
!	!	!	!	!	!	!	!LO:DY:b:t=f.	!	!	!	!	!	!	!	!	!	!	!	!
8r	.	8r	.	8r	.	8r	f	.	.	.	.	.	.	.	.	.	.	.	.
!	!	!	!	!	!LO:DY:b	!	!	!	!	!	!	!	!	!	!	!	!	!	!
!	!LO:DY:b	!	!	!	!	!	!	!	!	!	!	!	!	!	!	!	!	!	!
8AA/	f	8f\	.	16a\LL	f	(16cc\LL	.	.	.	.	.	.	.	.	.	.	.	.	.
.	.	.	.	16cc\JJ	.	16ee-\JJ)	.	.	.	.	.	.	.	.	.	.	.	.	.
=3	=3	=3	=3	=3	=3	=3	=3	=3	=3	=3	=3	=3	=3	=3	=3	=3	=3	=3	=3
!	!	!	!	!LO:TX:t=P:problem:mixed beam	!	!	!	!	!	!	!	!	!	!	!	!	!	!	!
8BB-/L	.	4f\	.	16cc\LL	.	(16ee-\LL	.	1ryy	1r	.	.	1r	.	.	1ryy	1ryy	1ryy	1ryy	1ryy
.	.	.	.	16b-\	.	16dd\)	.	.	.	.	.	.	.	.	.	.	.	.	.
8E-\J	.	.	.	16dd\	.	(16ff\	.	.	.	.	.	.	.	.	.	.	.	.	.
.	.	.	.	16d/JJ	.	16b-\JJ)	.	.	.	.	.	.	.	.	.	.	.	.	.
8F\L	.	16d\LL	.	16f/LL	.	16dd\LL	.	.	.	.	.	.	.	.	.	.	.	.	.
.	.	16c\	.	16e-/	.	(16cc\	.	.	.	.	.	.	.	.	.	.	.	.	.
8FF/J	.	16B-\	.	16d/	.	16b-\	.	.	.	.	.	.	.	.	.	.	.	.	.
.	.	16A\JJ	.	16c/JJ	.	16a\JJ)	.	.	.	.	.	.	.	.	.	.	.	.	.
4FF/	.	4e-\	.	4c/	.	4a/	.	.	.	.	.	.	.	.	.	.	.	.	.
.	.	.	.	.	.	16qqcc/	.	.	.	.	.	.	.	.	.	.	.	.	.
!	!	!	!	!LO:LB:g=original	!	!	!	!	!	!	!	!	!	!	!	!	!	!	!
8BB-/	.	8f\L	.	8d/L	.	8b-\	.	.	.	.	.	.	.	.	.	.	.	.	.
8r	.	8B-/J	.	8dd\J	.	16ff\LL	.	.	.	.	.	.	.	.	.	.	.	.	.
.	.	.	.	.	.	16b-\JJ	.	.	.	.	.	.	.	.	.	.	.	.	.
=4	=4	=4	=4	=4	=4	=4	=4	=4	=4	=4	=4	=4	=4	=4	=4	=4	=4	=4	=4
8r	.	8b-\	.	8ee-\	.	8gg\	.	1ryy	1r	.	.	1r	.	.	1ryy	1ryy	1ryy	1ryy	1ryy
8E-\L	.	4b-\	.	4ee-\	.	(4gg\	.	.	.	.	.	.	.	.	.	.	.	.	.
8E-\	.	.	.	.	.	.	.	.	.	.	.	.	.	.	.	.	.	.	.
8E-\J	.	8b-\	.	(16dd\LL	.	16ff\LL	.	.	.	.	.	.	.	.	.	.	.	.	.
.	.	.	.	16ee-\JJ)	.	16gg\JJ)	.	.	.	.	.	.	.	.	.	.	.	.	.
!	!	!	!	!	!	!LO:LB:g=original	!	!	!	!	!	!	!	!	!	!	!	!	!
8r	.	8a\	.	(16dd\LL	.	16ff\LL	.	.	.	.	.	.	.	.	.	.	.	.	.
.	.	.	.	16cc\JJ)	.	16ee-\JJ	.	.	.	.	.	.	.	.	.	.	.	.	.
8F\L	.	4a\	.	4cc\	.	4ee-\	.	.	.	.	.	.	.	.	.	.	.	.	.
8AA/	.	.	.	.	.	.	.	.	.	.	.	.	.	.	.	.	.	.	.
8BB-/J	.	8a\	.	8b-\	.	8dd\	.	.	.	.	.	.	.	.	.	.	.	.	.
=5	=5	=5	=5	=5	=5	=5	=5	=5	=5	=5	=5	=5	=5	=5	=5	=5	=5	=5	=5
8F\L	.	8f\L	.	8.a\L	.	8.cc\L	.	1ryy	1r	.	.	1r	.	.	1ryy	1ryy	1ryy	1ryy	1ryy
8FF/J	.	16d\L	.	.	.	.	.	.	.	.	.	.	.	.	.	.	.	.	.
.	.	16f\JJ	.	16b-\Jk	.	16dd\Jk	.	.	.	.	.	.	.	.	.	.	.	.	.
8r	.	8f\L	.	(16cc\LL	.	(16ee-\LL	.	.	.	.	.	.	.	.	.	.	.	.	.
.	.	.	.	16a\)	.	16cc\)	.	.	.	.	.	.	.	.	.	.	.	.	.
8C/	.	8f\J	.	(16b-\	.	(16dd\	.	.	.	.	.	.	.	.	.	.	.	.	.
.	.	.	.	16g\JJ)	.	16b-\JJ)	.	.	.	.	.	.	.	.	.	.	.	.	.
8F\L	.	8f\L	.	16.f/LL	.	16.a/LL	.	.	.	.	.	.	.	.	.	.	.	.	.
.	.	.	.	32g/JJk	.	32b-/JJk	.	.	.	.	.	.	.	.	.	.	.	.	.
.	.	.	.	16qqa/	.	.	.	.	.	.	.	.	.	.	.	.	.	.	.
.	.	.	.	.	.	32qqcc	.	.	.	.	.	.	.	.	.	.	.	.	.
8C/	.	8g\	.	16g/LL	.	16b-`/LL	.	.	.	.	.	.	.	.	.	.	.	.	.
.	.	.	.	32f/L	.	(32a/L	.	.	.	.	.	.	.	.	.	.	.	.	.
.	.	.	.	32g/JJJ	.	32b-/JJJ)	.	.	.	.	.	.	.	.	.	.	.	.	.
8FF/J	.	8f\J	.	8a/	.	8cc\	.	.	.	.	.	.	.	.	.	.	.	.	.
8r	.	8r	.	8r	.	16r	.	.	.	.	.	.	.	.	.	.	.	.	.
.	.	.	.	.	.	32ee-\LLL	.	.	.	.	.	.	.	.	.	.	.	.	.
.	.	.	.	.	.	32cc\JJJ	.	.	.	.	.	.	.	.	.	.	.	.	.
!	!	!LO:LB:g=original	!	!	!	!	!	!	!	!	!	!	!	!	!	!	!	!	!
=6	=6	=6	=6	=6	=6	=6	=6	=6	=6	=6	=6	=6	=6	=6	=6	=6	=6	=6	=6
!	!	!LO:TX:b:i:t=Dulce	!	!LO:TX:a:i:t=dulce	!	!LO:TX:b:i:t=dolce	!	!	!	!	!	!	!	!	!	!	!	!	!
.	.	.	.	.	.	8qqb-/	.	.	.	.	.	.	.	.	.	.	.	.	.
8F\L	.	(16A/LL	.	(16e-/LL	.	16a/LL	.	1ryy	1r	.	.	1r	.	.	1ryy	1ryy	1ryy	1ryy	1ryy
.	.	16c/)	.	16f/)	.	16a/	.	.	.	.	.	.	.	.	.	.	.	.	.
8F\	.	(16A/	.	(16e-/	.	16a/	.	.	.	.	.	.	.	.	.	.	.	.	.
.	.	16c/JJ)	.	16f/JJ)	.	16a/JJ	.	.	.	.	.	.	.	.	.	.	.	.	.
8F\J	.	(16A/LL	.	(16e-/LL	.	(8a/L	.	.	.	.	.	.	.	.	.	.	.	.	.
.	.	16c/)	.	16f/)	.	.	.	.	.	.	.	.	.	.	.	.	.	.	.
8r	.	(16A/	.	(16e-/	.	16cc/L	.	.	.	.	.	.	.	.	.	.	.	.	.
.	.	16c/JJ)	.	16f/JJ)	.	16a/JJ)	.	.	.	.	.	.	.	.	.	.	.	.	.
8BB-/L	.	(16B-/LL	.	(16d/LL	.	(16b-\LL	.	.	.	.	.	.	.	.	.	.	.	.	.
.	.	16d/)	.	16f/)	.	16dd\)	.	.	.	.	.	.	.	.	.	.	.	.	.
8BB-/	.	(16B-/	.	(16d/	.	16ff'\	.	.	.	.	.	.	.	.	.	.	.	.	.
.	.	16d/JJ)	.	16f/JJ)	.	16ff'\JJ	.	.	.	.	.	.	.	.	.	.	.	.	.
!	!	!	!	!	!	!LO:TX:t=P:problem:tr = t:	!	!	!	!	!	!	!	!	!	!	!	!	!
8BB-/J	.	(16B-/LL	.	(16d/LL	.	8.ffT\L	.	.	.	.	.	.	.	.	.	.	.	.	.
.	.	16d/)	.	16f/)	.	.	.	.	.	.	.	.	.	.	.	.	.	.	.
8r	.	(16B-/	.	(16d/	.	.	.	.	.	.	.	.	.	.	.	.	.	.	.
!	!	!	!	!	!	!LO:N:vis=16	!	!	!	!	!	!	!	!	!	!	!	!	!
.	.	16d/JJ)	.	16f/JJ)	.	32ee-\LL	.	.	.	.	.	.	.	.	.	.	.	.	.
!	!	!	!	!	!	!LO:N:vis=16	!	!	!	!	!	!	!	!	!	!	!	!	!
.	.	.	.	.	.	32cc\JJJ	.	.	.	.	.	.	.	.	.	.	.	.	.
!LO:LB:g=original	!	!	!	!	!	!	!	!	!	!	!	!	!	!	!	!	!	!	!
=7	=7	=7	=7	=7	=7	=7	=7	=7	=7	=7	=7	=7	=7	=7	=7	=7	=7	=7	=7
!	!	!	!	!	!	!	!LO:DY:a:t=p&colon;	!	!	!	!	!	!	!	!	!	!	!	!
.	.	.	.	.	.	8qqb-/	p	.	.	.	.	.	.	.	.	.	.	.	.
!	!	!	!	!	!LO:DY:b	!	!	!	!	!	!	!	!	!	!	!	!	!	!
8r	.	(16A/LL	.	(16e-/LL	p	16a/LL	.	1ryy	1r	.	.	1r	.	.	1ryy	1ryy	1ryy	1ryy	1ryy
.	.	16c/)	.	16f/)	.	16a/	.	.	.	.	.	.	.	.	.	.	.	.	.
8F\L	.	(16A/	.	(16e-/	.	16a/	.	.	.	.	.	.	.	.	.	.	.	.	.
.	.	16c/JJ)	.	16f/JJ)	.	16a/JJ	.	.	.	.	.	.	.	.	.	.	.	.	.
8F\	.	(16A/LL	.	(16e-/LL	.	8a/L	.	.	.	.	.	.	.	.	.	.	.	.	.
.	.	16c/)	.	16f/)	.	.	.	.	.	.	.	.	.	.	.	.	.	.	.
8F\J	.	(16A/	.	(16e-/	.	16cc/L	.	.	.	.	.	.	.	.	.	.	.	.	.
.	.	16c/JJ)	.	16f/JJ)	.	16a/JJ	.	.	.	.	.	.	.	.	.	.	.	.	.
8r	.	(16B-/LL	.	(16d/LL	.	16b-\LL	.	.	.	.	.	.	.	.	.	.	.	.	.
.	.	16d/)	.	16f/)	.	16dd\	.	.	.	.	.	.	.	.	.	.	.	.	.
8BB-/L	.	(16B-/	.	(16d/	.	16ff\	.	.	.	.	.	.	.	.	.	.	.	.	.
.	.	16d/JJ)	.	16f/JJ)	.	16ff\JJ	.	.	.	.	.	.	.	.	.	.	.	.	.
8BB-/	.	16B-/LL	.	(16d/LL	.	8ff\L	.	.	.	.	.	.	.	.	.	.	.	.	.
.	.	16d/	.	16f/)	.	.	.	.	.	.	.	.	.	.	.	.	.	.	.
8BB-/J	.	16f/	.	(16b-/	.	16dd\L	.	.	.	.	.	.	.	.	.	.	.	.	.
!	!	!	!	!	!	!	!LO:DY:b:t=for	!	!	!	!	!	!	!	!	!	!	!	!
.	.	16f/JJ	.	16cc/JJ)	.	16ee-\JJ	f	.	.	.	.	.	.	.	.	.	.	.	.
!	!	!	!	!LO:LB:g=original	!	!	!	!	!	!	!	!	!	!	!	!	!	!	!
=8	=8	=8	=8	=8	=8	=8	=8	=8	=8	=8	=8	=8	=8	=8	=8	=8	=8	=8	=8
!LO:TX:t=P:problem:mixed beam	!	!	!	!	!	!	!	!	!	!	!	!	!	!	!	!	!	!	!
8BB-/L	.	8f\L	.	8dd`\L	.	16.ff\LL	.	1ryy	1r	.	.	1r	.	.	1ryy	1ryy	1ryy	1ryy	1ryy
.	.	.	.	.	.	32bb-\JJk	.	.	.	.	.	.	.	.	.	.	.	.	.
!	!	!LO:TUP:a:problem:klamra łukowa	!	!LO:TUP:a:problem:klamra łukowa	!	!LO:TUP:a:problem:klamra łukowa	!	!	!	!	!	!	!	!	!	!	!	!	!
.	.	.	.	.	.	16qqaa/	.	.	.	.	.	.	.	.	.	.	.	.	.
8E-\	.	24e-\L	.	24ee-\L	.	24gg\LL	.	.	.	.	.	.	.	.	.	.	.	.	.
.	.	24f\	.	24dd\	.	24ff\	.	.	.	.	.	.	.	.	.	.	.	.	.
.	.	24g\JJ	.	24cc\JJ	.	24ee-\JJ	.	.	.	.	.	.	.	.	.	.	.	.	.
!	!	!	!	!	!	!LO:LB:g=original	!	!	!	!	!	!	!	!	!	!	!	!	!
8F\	.	8f\L	.	8b-\L	.	8dd\L	.	.	.	.	.	.	.	.	.	.	.	.	.
8FF/J	.	8f\J	.	8a\J	.	8cc\J	.	.	.	.	.	.	.	.	.	.	.	.	.
!	!	!	!	!LO:TX:b:t=Dolce	!	!	!	!	!	!	!	!	!	!	!	!	!	!	!
8r	.	16.d\LL	.	16.b-\LL	.	(16.dd\LL	.	.	.	.	.	.	.	.	.	.	.	.	.
.	.	32e-\K	.	32cc\K	.	32ee-\K)	.	.	.	.	.	.	.	.	.	.	.	.	.
8BB-/L	.	16f\	.	16dd\	.	16ff\	.	.	.	.	.	.	.	.	.	.	.	.	.
.	.	16f\JJ	.	16dd\JJ	.	16ff\JJ	.	.	.	.	.	.	.	.	.	.	.	.	.
!	!	!	!	!	!	!LO:TX:t=P:problem:tr = t:	!	!	!	!	!	!	!	!	!	!	!	!	!
.	.	8qqg/	.	8qqee-/	.	8qqgg/	.	.	.	.	.	.	.	.	.	.	.	.	.
8D/	.	8f\L	.	8dd\L	.	8ffT\L	.	.	.	.	.	.	.	.	.	.	.	.	.
8BB-/J	.	16e-\L	.	16cc\L	.	16ee-\L	.	.	.	.	.	.	.	.	.	.	.	.	.
.	.	16d\JJ	.	16b-\JJ	.	16dd\JJ	.	.	.	.	.	.	.	.	.	.	.	.	.
=9	=9	=9	=9	=9	=9	=9	=9	=9	=9	=9	=9	=9	=9	=9	=9	=9	=9	=9	=9
8r	.	16.g\LL	.	16.ee-\LL	.	(16.gg\LL	.	1ryy	1r	.	.	1r	.	.	1ryy	1ryy	1ryy	1ryy	1ryy
.	.	32a\K	.	32ff\K	.	32aa\K	.	.	.	.	.	.	.	.	.	.	.	.	.
8E-\L	.	16b-\	.	16gg\	.	16bb-\)	.	.	.	.	.	.	.	.	.	.	.	.	.
.	.	16b-\JJ	.	16gg\JJ	.	16bb-\JJ	.	.	.	.	.	.	.	.	.	.	.	.	.
.	.	8qqcc/	.	8qqaa/	.	8qqccc/	.	.	.	.	.	.	.	.	.	.	.	.	.
8G\	.	8b-\L	.	8gg\L	.	8bb-\L	.	.	.	.	.	.	.	.	.	.	.	.	.
8E-\J	.	16a\L	.	16ff\L	.	16aa\L	.	.	.	.	.	.	.	.	.	.	.	.	.
.	.	16g\JJ	.	16ee-\JJ	.	16gg\JJ	.	.	.	.	.	.	.	.	.	.	.	.	.
!LO:TX:t=P:problem:mixed beam	!	!	!	!	!	!	!	!	!	!	!	!	!	!	!	!	!	!	!
8D\L	.	8f\L	.	8dd\L	.	8ff\L	.	.	.	.	.	.	.	.	.	.	.	.	.
!	!	!	!	!LO:TUP:a:problem:klamra łukowa	!	!LO:TUP:a:problem:klamra łukowa	!	!	!	!	!	!	!	!	!	!	!	!	!
*	*	*Xtuplet	*	*	*	*	*	*	*	*	*	*	*	*	*	*	*	*	*
8E-\	.	24e-\L	.	24ee-\L	.	24gg\L	.	.	.	.	.	.	.	.	.	.	.	.	.
.	.	24f\	.	24dd\	.	24ff\	.	.	.	.	.	.	.	.	.	.	.	.	.
.	.	24g\JJ	.	24cc\JJ	.	24ee-\JJ	.	.	.	.	.	.	.	.	.	.	.	.	.
*	*	*tuplet	*	*	*	*	*	*	*	*	*	*	*	*	*	*	*	*	*
8F\	.	8f\L	.	8b-\L	.	8dd\L	.	.	.	.	.	.	.	.	.	.	.	.	.
8FF/J	.	8f\J	.	8f/J	.	8cc\J	.	.	.	.	.	.	.	.	.	.	.	.	.
!	!	!LO:LB:g=original	!	!	!	!	!	!	!	!	!	!	!	!	!	!	!	!	!
=10	=10	=10	=10	=10	=10	=10	=10	=10	=10	=10	=10	=10	=10	=10	=10	=10	=10	=10	=10
!	!	!	!	!	!LO:DY:b	!	!LO:DY:a:t=p&colon;	!	!	!	!	!	!	!	!	!	!	!	!
8r	p	8r	.	16B-/LL	p	16.d/LL	p	1ryy	1r	.	.	1r	.	.	1ryy	1ryy	1ryy	1ryy	1ryy
.	.	.	.	16c/	.	.	.	.	.	.	.	.	.	.	.	.	.	.	.
.	.	.	.	.	.	32e-/K	.	.	.	.	.	.	.	.	.	.	.	.	.
!	!	!	!LO:DY:b	!	!	!	!	!	!	!	!	!	!	!	!	!	!	!	!
8BB-/L	.	8f\L	p	16d/	.	16f/	.	.	.	.	.	.	.	.	.	.	.	.	.
.	.	.	.	16d/JJ	.	16f/JJ	.	.	.	.	.	.	.	.	.	.	.	.	.
.	.	.	.	.	.	16qqg/	.	.	.	.	.	.	.	.	.	.	.	.	.
8D/	.	8f\	.	8d/L	.	8f/L	.	.	.	.	.	.	.	.	.	.	.	.	.
8BB-/J	.	8f\J	.	16c/L	.	16e-/L	.	.	.	.	.	.	.	.	.	.	.	.	.
.	.	.	.	16B-/JJ	.	16d/JJ	.	.	.	.	.	.	.	.	.	.	.	.	.
8r	.	8r	.	16e-/LL	.	16g/LL	.	.	.	.	.	.	.	.	.	.	.	.	.
.	.	.	.	16f/	.	16a/	.	.	.	.	.	.	.	.	.	.	.	.	.
8E-\L	.	8B-/L	.	16g/	.	16b-/	.	.	.	.	.	.	.	.	.	.	.	.	.
.	.	.	.	16g/JJ	.	16b-/JJ	.	.	.	.	.	.	.	.	.	.	.	.	.
.	.	.	.	.	.	16qqcc/	.	.	.	.	.	.	.	.	.	.	.	.	.
8G\	.	8B-/	.	8g/L	.	8b-/L	.	.	.	.	.	.	.	.	.	.	.	.	.
8E-\J	.	8B-/J	.	16f/L	.	16a/L	.	.	.	.	.	.	.	.	.	.	.	.	.
.	.	.	.	16e-/JJ	.	16g/JJ	.	.	.	.	.	.	.	.	.	.	.	.	.
=11	=11	=11	=11	=11	=11	=11	=11	=11	=11	=11	=11	=11	=11	=11	=11	=11	=11	=11	=11
!LO:TX:t=P:problem:mixed beam	!	!	!	!	!	!	!	!	!	!	!	!	!	!	!	!	!	!	!
!	!	!	!	!	!LO:DY:b	!	!LO:DY:b:t=f&colon;	!	!	!	!	!	!	!	!	!	!	!	!
8D\L	.	8B-\L	.	8d/L	f	16f/LL	f	1ryy	1r	.	.	1r	.	.	1ryy	1ryy	1ryy	1ryy	1ryy
.	.	.	.	.	.	16b-/JJ	.	.	.	.	.	.	.	.	.	.	.	.	.
!	!	!	!	!LO:TUP:a:problem:klamra łukowa	!	!LO:TUP:a:problem:klamra łukowa	!	!	!	!	!	!	!	!	!	!	!	!	!
8E-\	.	8e-\	.	24e-/L	.	24g/LL	.	.	.	.	.	.	.	.	.	.	.	.	.
.	.	.	.	24d/	.	24f/	.	.	.	.	.	.	.	.	.	.	.	.	.
.	.	.	.	24c/JJ	.	24e-/JJ	.	.	.	.	.	.	.	.	.	.	.	.	.
8F\	.	8f\	.	8B-/L	.	8d/L	.	.	.	.	.	.	.	.	.	.	.	.	.
8FF/J	.	8f\J	.	8A/J	.	8c/J	.	.	.	.	.	.	.	.	.	.	.	.	.
!	!	!	!	!LO:TX:t=P:problem:mixed beam	!	!	!	!	!	!	!	!	!	!	!	!	!	!	!
!	!	!	!LO:DY:b	!	!	!	!	!	!	!	!	!	!	!	!	!	!	!	!
!	!LO:DY:b	!	!	!	!	!	!	!	!	!	!	!	!	!	!	!	!	!	!
4BB-/	f	8.f\L	f	8.d/L	.	8.b-\L	.	.	.	.	.	.	.	.	.	.	.	.	.
.	.	16f\K	.	16b-\Jk	.	16dd\Jk	.	.	.	.	.	.	.	.	.	.	.	.	.
!	!	!	!	!LO:TX:t=P:problem:mixed beam	!	!	!	!	!	!	!	!	!	!	!	!	!	!	!
8r	.	8f\	.	16dd\LL	.	16ff\LL	.	.	.	.	.	.	.	.	.	.	.	.	.
.	.	.	.	16cc\	.	16ee-\	.	.	.	.	.	.	.	.	.	.	.	.	.
8F\	.	8c\J	.	16f/	.	16cc\	.	.	.	.	.	.	.	.	.	.	.	.	.
.	.	.	.	16e-/JJ	.	16a\JJ	.	.	.	.	.	.	.	.	.	.	.	.	.
=	=	=	=	=	=	=	=	=	=	=	=	=	=	=	=	=	=	=	=
!	!	!	!	!	!	!LO:TX:t=P:problem:tr = t:	!	!	!LO:TX:t=P:problem:pełny, nierozdzielony takt	!	!	!	!	!	!	!	!	!	!
4F\	.	4c\	.	4e-/	.	4at/	.	2ryy	4r	.	.	2r	.	.	2ryy	2ryy	2ryy	2ryy	2ryy
!	!	!	!	!	!LO:DY:b	!	!	!	!	!	!	!	!	!	!	!	!	!	!
8BB-/	.	8f\	.	8d/	pp	8b-/	.	.	8r	.	.	.	.	.	.	.	.	.	.
!	!	!	!	!	!	!LO:LB:g=original	!	!	!	!	!	!	!	!	!	!	!	!	!
!	!	!	!	!	!	!	!LO:DY:b:t=pp&colon;	!	!	!	!	!	!	!	!	!	!	!	!
8r	.	8r	.	16B-/LL	.	16dd\LL	pp	.	16.d\LL	Do-	.	.	.	.	.	.	.	.	.
.	.	.	.	16c/JJ	.	16ee-\JJ	.	.	.	.	.	.	.	.	.	.	.	.	.
.	.	.	.	.	.	.	.	.	32e-\JJk	.	.	.	.	.	.	.	.	.	.
=12||	=12||	=12||	=12||	=12||	=12||	=12||	=12||	=12||	=12||	=12||	=12||	=12||	=12||	=12||	=12||	=12||	=12||	=12||	=12||
!	!	!	!LO:DY:b	!	!	!	!	!	!LO:TX:t=P:problem:pełny, nierozdzielony takt	!	!	!	!	!	!	!	!	!	!
!	!LO:DY:b	!	!	!	!	!	!	!	!	!	!	!	!	!	!	!	!	!	!
8r	pp	8f\L	pp	8d/L	.	8ff\L	.	2ryy	8f\	-ce-	.	2r	.	.	2ryy	2ryy	2ryy	2ryy	2ryy
!LO:TX:t=P:problem:mixed beam	!	!	!	!	!	!	!	!	!	!	!	!	!	!	!	!	!	!	!
8BB-/L	.	8f\	.	8d/J	.	8cc\J	.	.	16B-\	-bo	.	.	.	.	.	.	.	.	.
.	.	.	.	.	.	.	.	.	16B-\	i-	.	.	.	.	.	.	.	.	.
8F\	.	8f\	.	16f/LL	.	16dd\LL	.	.	16d\LL	-ni-	.	.	.	.	.	.	.	.	.
.	.	.	.	16e-/	.	16cc\	.	.	16c\	.	.	.	.	.	.	.	.	.	.
8FF/J	.	8f\J	.	16d/	.	16b-\	.	.	16B-\	.	.	.	.	.	.	.	.	.	.
.	.	.	.	16c/JJ	.	16a\JJ	.	.	16A\JJ	.	.	.	.	.	.	.	.	.	.
=13	=13	=13	=13	=13	=13	=13	=13	=13	=13	=13	=13	=13	=13	=13	=13	=13	=13	=13	=13
!	!	!	!	!	!	!	!LO:DY:a	!	!	!	!	!	!	!	!	!	!	!	!
.	.	.	.	.	.	16qqcc/	.	.	16qqA/	.	.	.	.	.	.	.	.	.	.
!	!	!	!LO:DY:b	!	!	!	!LO:DY:b:t=f&colon;	!	!	!	!	!	!	!	!	!	!	!	!
8BB-/	.	8f\L	f	8d/L	.	8b-\L	f	1ryy	8B-\	-quos	.	2r	.	.	1ryy	1ryy	1ryy	1ryy	1ryy
!	!	!	!	!	!LO:DY:b	!	!	!	!	!	!	!	!	!	!	!	!	!	!
8r	.	8f\	.	8f/	f	8f/	.	.	8r	.	.	.	.	.	.	.	.	.	.
!LO:LB:g=original	!	!	!	!	!	!	!	!	!	!	!	!	!	!	!	!	!	!	!
8r	.	8d\	.	8d/	.	8d/	.	.	4r	.	.	.	.	.	.	.	.	.	.
!	!LO:DY:b	!	!	!	!	!	!	!	!	!	!	!	!	!	!	!	!	!	!
8BB-/	f	8B-\J	.	8B-/J	.	8B-/J	.	.	.	.	.	.	.	.	.	.	.	.	.
!	!	!	!LO:DY:b	!	!LO:DY:b	!	!	!	!	!	!	!	!	!	!	!	!	!	!
!	!LO:DY:b	!	!	!	!	!	!	!	!	!	!	!	!	!	!	!	!	!	!
4E-\	pp	8b-\L	pp	8.e-/L	pp	8.gg\L	.	.	2r	.	.	8.g\	vi-	.	.	.	.	.	.
.	.	8b-\J	.	.	.	.	.	.	.	.	.	.	.	.	.	.	.	.	.
.	.	.	.	16f/Jk	.	16aa\Jk	.	.	.	.	.	16a\	-as	.	.	.	.	.	.
.	.	.	.	.	.	8qqccc/	.	.	.	.	.	8qqcc/	.	.	.	.	.	.	.
8E-\L	.	8r	.	8g/L	.	8bb-\L	.	.	.	.	.	8b-\	vi-	.	.	.	.	.	.
8G\J	.	8b-\	.	16f/L	.	16aa\L	.	.	.	.	.	16a\LL	-as	.	.	.	.	.	.
.	.	.	.	16e-/JJ	.	16gg\JJ	.	.	.	.	.	16g\JJ	.	.	.	.	.	.	.
=14	=14	=14	=14	=14	=14	=14	=14	=14	=14	=14	=14	=14	=14	=14	=14	=14	=14	=14	=14
.	.	.	.	.	.	8qqaa/	.	.	.	.	.	8qqa/	.	.	.	.	.	.	.
8B-\L	.	8b-\L	.	8e-/L	.	8gg\L	.	1ryy	4r	.	.	8g\	tu-	.	1ryy	1ryy	1ryy	1ryy	1ryy
8BB-/J	.	8b-\J	.	8d/J	.	8ff\J	.	.	.	.	.	8f\	-as	.	.	.	.	.	.
8r	.	8r	.	8r	.	8r	.	.	8r	.	.	4r	.	.	.	.	.	.	.
8AA/	.	8f\	.	16a\LL	.	16cc\LL	.	.	16c\LL	do-	.	.	.	.	.	.	.	.	.
.	.	.	.	16cc\JJ	.	16ee-\JJ	.	.	16e-\JJ	.	.	.	.	.	.	.	.	.	.
!LO:TX:t=P:problem:mixed beam	!	!	!	!LO:TX:t=P:problem:mixed beam	!	!	!	!	!	!	!	!	!	!	!	!	!	!	!
8BB-/L	.	4f\	.	16cc\LL	.	(16ee-\LL	.	.	16e-\LL	-ce-	.	8r	.	.	.	.	.	.	.
.	.	.	.	16b-\	.	16dd\)	.	.	16d\JJ	.	.	.	.	.	.	.	.	.	.
!	!	!	!	!	!	!	!	!	!	!	!	!LO:LB:g=original	!	!	!	!	!	!	!
8E-\	.	.	.	16dd\	.	(16ff\	.	.	16f\	-bo	.	16r	.	.	.	.	.	.	.
.	.	.	.	16d/JJ	.	16b-\JJ)	.	.	16B-\	i-	.	16d\	i-	.	.	.	.	.	.
8F\	.	8f\L	.	16f/LL	.	16dd\LL	.	.	16d\LL	-ni-	.	16f\LL	-ni-	.	.	.	.	.	.
.	.	.	.	16e-/	.	(16cc\	.	.	16c\JJ	.	.	16e-\JJ	.	.	.	.	.	.	.
8FF/J	.	8f\J	.	16d/	.	16b-\	.	.	16B-\LL	.	.	16d\LL	.	.	.	.	.	.	.
.	.	.	.	16c/JJ	.	16a\JJ)	.	.	16A\JJ	.	.	16c\JJ	.	.	.	.	.	.	.
!	!	!	!	!	!	!	!	!	!LO:LB:g=original	!	!	!	!	!	!	!	!	!	!
=15	=15	=15	=15	=15	=15	=15	=15	=15	=15	=15	=15	=15	=15	=15	=15	=15	=15	=15	=15
4FF/	.	4e-\	.	4c/	.	4a/	.	1ryy	(4A\	-quos	.	(4c\	-quos	.	1ryy	1ryy	1ryy	1ryy	1ryy
!	!	!	!	!	!	!LO:TX:t=P:problem:mixed beam	!	!	!	!	!	!	!	!	!	!	!	!	!
8BB-/	.	8f\L	.	8d/L	.	8b-/L	.	.	8B-\)	.	.	8d\)	.	.	.	.	.	.	.
8r	.	8B-/J	.	8dd\J	.	16ff\L	.	.	8d\L	vi-	.	(8f\	vi-	.	.	.	.	.	.
.	.	.	.	.	.	16dd\JJ	.	.	.	.	.	.	.	.	.	.	.	.	.
8r	.	8b-\	.	8ee-\	.	8gg\	.	.	8e-\J	.	.	8g\)	.	.	.	.	.	.	.
8E-\L	.	4b-\	.	4ee-\	.	4gg\	.	.	4e-\	.	.	4g\	-a-	.	.	.	.	.	.
8E-\	.	.	.	.	.	.	.	.	.	.	.	.	.	.	.	.	.	.	.
8E-\J	.	8b-\	.	16dd\LL	.	16ff\LL	.	.	16d\LL	-as	.	16f\LL	-s	.	.	.	.	.	.
.	.	.	.	16ee-\JJ	.	16gg\JJ	.	.	16e-\JJ	.	.	16g\JJ	.	.	.	.	.	.	.
!	!	!LO:LB:g=original	!	!	!	!	!	!	!	!	!	!	!	!	!	!	!	!	!
=16	=16	=16	=16	=16	=16	=16	=16	=16	=16	=16	=16	=16	=16	=16	=16	=16	=16	=16	=16
8r	.	8a\	.	16dd\LL	.	16ff\LL	.	1ryy	16d\LL	tu-	.	16f\LL	tu-	.	1ryy	1ryy	1ryy	1ryy	1ryy
.	.	.	.	16cc\JJ	.	16ee-\JJ	.	.	16c\JJ	.	.	16e-\JJ	.	.	.	.	.	.	.
8F\L	.	4a\	.	4cc\	.	4ee-\	.	.	4c\	.	.	4e-\	.	.	.	.	.	.	.
8AA/	.	.	.	.	.	.	.	.	.	.	.	.	.	.	.	.	.	.	.
8BB-/J	.	8b-\	.	8b-\	.	8dd\	.	.	8B-\	-as	.	8d\	-as	.	.	.	.	.	.
8F\L	.	8.f\L	.	8.a/L	.	8.cc\L	.	.	8.c\	vi-	.	8.a\	vi-	.	.	.	.	.	.
8FF/J	.	.	.	.	.	.	.	.	.	.	.	.	.	.	.	.	.	.	.
.	.	16f\Jk	.	16b-/Jk	.	16dd\Jk	.	.	16d\	-as	.	16b-\	-as	.	.	.	.	.	.
!	!	!	!	!	!	!LO:LB:g=original	!	!	!	!	!	!	!	!	!	!	!	!	!
*	*	*	*	*	*	*	*	*	*	*ij	*	*	*	*	*	*	*	*	*
8r	.	8f\L	.	16cc\LL	.	16ee-\LL	.	.	16e-\LL	vi-	.	16cc\LL	vi-	.	.	.	.	.	.
.	.	.	.	16a\	.	16cc\	.	.	16c\JJ	.	.	16a\JJ	.	.	.	.	.	.	.
8F\	.	8f\J	.	16b-\	.	16dd\	.	.	16d\LL	-as	.	16b-\LL	-as	.	.	.	.	.	.
.	.	.	.	16g\JJ	.	16b-\JJ	.	.	16B-\JJ	.	.	16g\JJ	.	.	.	.	.	.	.
*	*	*	*	*	*	*	*	*	*	*Xij	*	*	*	*	*	*	*	*	*
!	!	!	!	!LO:LB:g=original	!	!	!	!	!	!	!	!	!	!	!	!	!	!	!
=17	=17	=17	=17	=17	=17	=17	=17	=17	=17	=17	=17	=17	=17	=17	=17	=17	=17	=17	=17
!LO:TX:t=P:problem:mixed beam	!	!	!	!	!	!	!	!	!	!	!	!	!	!	!	!	!	!	!
8F\L	.	8f\L	.	16.f/LL	.	16.a\LL	.	1ryy	16.A\LL	tu-	.	16.f\LL	tu-	.	1ryy	1ryy	1ryy	1ryy	1ryy
.	.	.	.	32g/JK	.	32b-\JJk	.	.	32B-\JJk	.	.	32g\JJk	.	.	.	.	.	.	.
.	.	.	.	.	.	16qqcc/	.	.	.	.	.	.	.	.	.	.	.	.	.
8C\	.	8en\	.	8g/	.	16b-\LL	.	.	16B-\LL	.	.	8g\	.	.	.	.	.	.	.
.	.	.	.	.	.	32a\L	.	.	32A\L	.	.	.	.	.	.	.	.	.	.
.	.	.	.	.	.	32b-\JJJ	.	.	32B-\JJJ	.	.	.	.	.	.	.	.	.	.
8FF/J	.	8f\J	.	8a/	.	[8cc\L	.	.	8c\	-as	.	8a\	-as	.	.	.	.	.	.
8r	.	8r	.	8a/J	.	16cc\L]	.	.	16c\LL	et	.	8a\	et	.	.	.	.	.	.
.	.	.	.	.	.	16ff\JJ	.	.	16f\JJ	.	.	.	.	.	.	.	.	.	.
8r	.	8r	.	16a/LL	.	(16ff\LL	.	.	16f\	im-	.	16a\	im-	.	.	.	.	.	.
.	.	.	.	16g/JJ	.	16een\J)	.	.	16en\	-pi-	.	16g\	-pi-	.	.	.	.	.	.
8C/	.	8g\L	.	4g/	.	8.ee\	.	.	8.f\	-i	.	4g\	-i	.	.	.	.	.	.
4C/	.	8g\J	.	.	.	.	.	.	.	.	.	.	.	.	.	.	.	.	.
!	!	!	!	!	!	!LO:N:vis=8	!	!	!	!	!	!	!	!	!	!	!	!	!
.	.	.	.	.	.	16a\Jk	.	.	(16A\	et	.	.	.	.	.	.	.	.	.
!	!	!	!	!	!	!	!	!	!	!	!	!LO:LB:g=original	!	!	!	!	!	!	!
.	.	8r	.	16g/LL	.	(16b-\LL	.	.	16B-\LL	.	.	16g\LL	et	.	.	.	.	.	.
.	.	.	.	16b-/JJ	.	16dd\JJ)	.	.	16d\JJ)	.	.	16b-\JJ	.	.	.	.	.	.	.
=18	=18	=18	=18	=18	=18	=18	=18	=18	=18	=18	=18	=18	=18	=18	=18	=18	=18	=18	=18
8r	.	8r	.	16b-/LL	.	16dd\LL	.	1ryy	16d\	im-	.	16b-\	im-	.	1ryy	1ryy	1ryy	1ryy	1ryy
.	.	.	.	16a/JJ	.	16cc\JJ	.	.	16c\	-pi-	.	16a\	-pi-	.	.	.	.	.	.
!	!	!	!	!	!	!	!	!	!LO:LB:g=original	!	!	!	!	!	!	!	!	!	!
8G\L	.	8g\L	.	4a/	.	4cc\	.	.	4c\	-i	.	4a\	-i	.	.	.	.	.	.
8En\	.	8g\	.	.	.	.	.	.	.	.	.	.	.	.	.	.	.	.	.
8C\J	.	8g\J	.	16en/LL	.	16g\LL	.	.	16G\LL	ad	.	16en\LL	ad	.	.	.	.	.	.
.	.	.	.	16g/JJ	.	16b-\JJ	.	.	16B-\JJ	.	.	16g\JJ	.	.	.	.	.	.	.
8F\L	.	8cc\L	.	(16g/LL	.	(16b-\LL	.	.	16B-\LL	te	.	(16g\LL	te	.	.	.	.	.	.
.	.	.	.	16f/)	.	16a\)	.	.	16A\	.	.	16f\	.	.	.	.	.	.	.
8FF/J	.	8cc\J	.	(16f/	.	(16a\	.	.	16A\	.	.	16f\)	.	.	.	.	.	.	.
.	.	.	.	16a/JJ)	.	16cc\JJ)	.	.	16c\JJ	.	.	16a\JJ	.	.	.	.	.	.	.
!	!	!	!	!LO:TUP:a:problem:klamra łukowa	!	!LO:TUP:a:problem:klamra łukowa	!	!	!LO:TUP:a:problem:klamra łukowa	!	!	!LO:TUP:a:problem:klamra łukowa	!	!	!	!	!	!	!
!	!	!	!	!	!	!	!	!	!	!	!	!LO:TX:t=P:problem:kropka zamiast 3	!	!	!	!	!	!	!
!	!	!	!	!	!	!	!	!	!LO:TX:t=P:problem:kropka zamiast 3	!	!	!	!	!	!	!	!	!	!
8r	.	8r	.	24a/LL	.	24ff\LL	.	.	24f\LL	con-	.	24a\LL	con-	.	.	.	.	.	.
.	.	.	.	24g/	.	24ee-\	.	.	24e-\	.	.	24g\	.	.	.	.	.	.	.
.	.	.	.	24b-/JJ	.	24dd\JJ	.	.	24d\JJ	.	.	24b-\JJ	.	.	.	.	.	.	.
!	!	!	!	!LO:TUP:a:problem:klamra łukowa	!	!	!	!	!LO:TUP:a:problem:klamra łukowa	!	!	!LO:TUP:a:problem:klamra łukowa	!	!	!	!	!	!	!
!	!	!	!	!	!	!	!	!	!LO:TX:t=P:problem:kropka zamiast 3	!	!	!LO:TX:t=P:problem:kropka zamiast 3	!	!	!	!	!	!	!
8F\	.	8cc\	.	24a/LL	.	24cc\LL	.	.	24c\LL	-ver-	.	24a\LL	-ver-	.	.	.	.	.	.
.	.	.	.	24g/	.	24b-\	.	.	24B-\	.	.	24g\	.	.	.	.	.	.	.
.	.	.	.	24f/JJ	.	24a\JJ	.	.	24A\JJ	.	.	24f\JJ	.	.	.	.	.	.	.
=19	=19	=19	=19	=19	=19	=19	=19	=19	=19	=19	=19	=19	=19	=19	=19	=19	=19	=19	=19
!LO:TX:t=P:problem:mixed beam	!	!	!	!	!	!	!	!	!	!	!	!	!	!	!	!	!	!	!
.	.	.	.	.	.	32qqb-	.	.	8qqB-/	.	.	.	.	.	.	.	.	.	.
!LO:TX:a:t=P:problem:♮ above	!	!	!	!	!	!	!	!	!	!	!	!	!	!	!	!	!	!	!
8c\L	.	8cc\L	.	8f/L	.	16a/LL	.	1ryy	16A\LL	-ten-	.	8f'\	-ten-	.	1ryy	1ryy	1ryy	1ryy	1ryy
.	.	.	.	.	.	32g/L	.	.	32G\L	.	.	.	.	.	.	.	.	.	.
.	.	.	.	.	.	32a/JJJ	.	.	32A\JJJ	.	.	.	.	.	.	.	.	.	.
!	!	!	!	!LO:SIC:s=en	!	!	!	!	!	!	!	!LO:SIC:s=en	!	!	!	!	!	!	!
8C/J	.	8cc\J	.	8e-/J	.	8g/	.	.	8G/	-tur	.	8e-'\	-tur	.	.	.	.	.	.
8r	.	8r	.	8r	.	8r	.	.	8r	.	.	8r	.	.	.	.	.	.	.
8C/	.	8c\	.	16en/LL	.	(16g/LL	.	.	(16G/LL	ad	.	(16en\LL	con-	.	.	.	.	.	.
.	.	.	.	16f/JJ	.	16a/JJ)	.	.	16A/JJ)	.	.	16f\JJ)	.	.	.	.	.	.	.
*tremolo	*	*2\right	*	*	*	*	*	*	*	*	*	*	*	*	*	*	*	*	*
*	*	*tremolo	*	*	*	*	*	*	*	*	*	*	*	*	*	*	*	*	*
!	!	!	!	!	!	!	!	!	!LO:TX:t=P:problem:zbędna kreska taktowa	!	!	!	!	!	!	!	!	!	!
8C/L	.	8en\L	.	8g/L	.	8b-\L	.	.	(32B-\LLL	.	.	32g\LLL	.	.	.	.	.	.	.
.	.	.	.	.	.	.	.	.	32c\	.	.	(32a\	.	.	.	.	.	.	.
.	.	.	.	.	.	.	.	.	32B-\	.	.	32g\	.	.	.	.	.	.	.
.	.	.	.	.	.	.	.	.	32A\JJJ)	.	.	32f#X\JJJ)	.	.	.	.	.	.	.
8C/	.	8en\	.	8g/	.	8b-\	.	.	8B-'\	te	.	8g\	-ver-	.	.	.	.	.	.
8C/	.	8en\	.	8g/	.	8b-\	.	.	(32B-\LLL	con-	.	32g\LLL	-ten-	.	.	.	.	.	.
.	.	.	.	.	.	.	.	.	32c\	.	.	32a\	.	.	.	.	.	.	.
.	.	.	.	.	.	.	.	.	32B-\	.	.	32g\	.	.	.	.	.	.	.
.	.	.	.	.	.	.	.	.	32A\JJJ)	.	.	32f#X\JJJ	.	.	.	.	.	.	.
8C/J	.	8en\J	.	8g/J	.	8b-\J	.	.	8B-\	-ver-	.	8g\	.	.	.	.	.	.	.
!LO:LB:g=original	!	!	!	!	!	!	!	!	!	!	!	!	!	!	!	!	!	!	!
=20	=20	=20	=20	=20	=20	=20	=20	=20	=20	=20	=20	=20	=20	=20	=20	=20	=20	=20	=20
!	!	!LO:SIC:s=en	!	!LO:TX:t=P:problem:mixed beam	!	!	!	!	!	!	!	!	!	!	!	!	!	!	!
4C/	.	4e-\	.	8g/L	.	8b-\L	.	1ryy	8B-\L	-ten-	.	8g\L	.	.	1ryy	1ryy	1ryy	1ryy	1ryy
!	!	!	!	!	!	!	!	!	!	!	!	!LO:SIC:s=een	!	!	!	!	!	!	!
.	.	.	.	(16ee-\L	.	16gg\L	.	.	16g\L	.	.	16ee-\L	.	.	.	.	.	.	.
.	.	.	.	16dd\JJ)	.	16ff\JJ	.	.	16f\JJ	.	.	16dd\JJ	.	.	.	.	.	.	.
8r	.	8r	.	(16cc\LL	.	(32een\LLL	.	.	(32en\LLL	.	.	16cc\LL	.	.	.	.	.	.	.
.	.	.	.	.	.	32ff\)	.	.	32f\)	.	.	.	.	.	.	.	.	.	.
.	.	.	.	16b-\	.	(32dd\	.	.	(32d\	.	.	16b-\	.	.	.	.	.	.	.
.	.	.	.	.	.	32ee\JJJ)	.	.	32e\JJJ)	.	.	.	.	.	.	.	.	.	.
!	!	!	!	!	!	!LO:LB:g=original	!	!	!	!	!	!	!	!	!	!	!	!	!
8C/	.	8c\	.	16a\	.	(32cc\LLL	.	.	(32c\LLL	.	.	16a\	.	.	.	.	.	.	.
.	.	.	.	.	.	32dd\)	.	.	32d\)	.	.	.	.	.	.	.	.	.	.
.	.	.	.	16g\JJ)	.	(32b-\	.	.	(32B-\	.	.	16g\JJ	.	.	.	.	.	.	.
.	.	.	.	.	.	32cc\JJJ)	.	.	32c\JJJ)	.	.	.	.	.	.	.	.	.	.
!	!	!	!	!	!	!	!	!	!	!	!	!LO:LB:g=original	!	!	!	!	!	!	!
8C/L	.	8cc\L	.	8f/L	.	8a\L	.	.	32A\LLL	.	.	32fn\LLL	.	.	.	.	.	.	.
.	.	.	.	.	.	.	.	.	32B-\	.	.	32g\	.	.	.	.	.	.	.
.	.	.	.	.	.	.	.	.	32A\	.	.	32f\	.	.	.	.	.	.	.
.	.	.	.	.	.	.	.	.	32G\JJJ	.	.	32e-\JJ	.	.	.	.	.	.	.
.	.	.	.	.	.	16qqb-/	.	.	.	.	.	.	.	.	.	.	.	.	.
8C/	.	8cc\	.	8f/	.	8a\	.	.	8A\	-tur	.	8f\J	-tur	.	.	.	.	.	.
.	.	.	.	.	.	16qqb-/	.	.	.	.	.	.	.	.	.	.	.	.	.
!	!	!	!	!	!	!	!	!	!LO:LB:g=original	!	!	!	!	!	!	!	!	!	!
8C/	.	8cc\	.	8f/	.	8a\	.	.	32A\LLL	con-	.	32f\LLL	con-	.	.	.	.	.	.
.	.	.	.	.	.	.	.	.	32B-\	.	.	32g\	.	.	.	.	.	.	.
.	.	.	.	.	.	.	.	.	32A\	.	.	32f\	.	.	.	.	.	.	.
.	.	.	.	.	.	.	.	.	32G\JJJ	.	.	32e-\JJJ	.	.	.	.	.	.	.
.	.	.	.	.	.	16qqb-/	.	.	.	.	.	.	.	.	.	.	.	.	.
8C/J	.	8cc\J	.	8f/J	.	8a\J	.	.	8A\	-ver-	.	8f\	-ver-	.	.	.	.	.	.
=21	=21	=21	=21	=21	=21	=21	=21	=21	=21	=21	=21	=21	=21	=21	=21	=21	=21	=21	=21
!	!	!	!	!LO:TX:t=P:problem:mixed beam	!	!	!	!	!	!	!	!	!	!	!	!	!	!	!
.	.	.	.	.	.	16qqb-/	.	.	.	.	.	.	.	.	.	.	.	.	.
4C/	.	4cc\	.	8f/L	.	8a\L	.	1ryy	8A\L	-ten-	.	8f\L	-ten-	.	1ryy	1ryy	1ryy	1ryy	1ryy
.	.	.	.	(16ff\L	.	16aa\L	.	.	(16a\L	.	.	16f\L	.	.	.	.	.	.	.
.	.	.	.	16ee-\JJ)	.	16gg\JJ	.	.	16g\JJ)	.	.	16e-\JJ	.	.	.	.	.	.	.
8r	.	8r	.	(16dd\LL	.	(32ff\LLL	.	.	(32f\LLL	.	.	16dd\LL	.	.	.	.	.	.	.
.	.	.	.	.	.	32gg\)	.	.	32g\)	.	.	.	.	.	.	.	.	.	.
.	.	.	.	16cc\	.	(32ee-\	.	.	(32e-\	.	.	16cc\	.	.	.	.	.	.	.
.	.	.	.	.	.	32ff\JJJ)	.	.	32f\JJJ)	.	.	.	.	.	.	.	.	.	.
8C/	.	8e-\	.	16b-\	.	(32dd\LLL	.	.	(32d\LLL	.	.	16b-\	.	.	.	.	.	.	.
.	.	.	.	.	.	32ee-\)	.	.	32e-\)	.	.	.	.	.	.	.	.	.	.
.	.	.	.	16a\JJ)	.	(32cc\	.	.	(32c\	.	.	16a\JJ	.	.	.	.	.	.	.
.	.	.	.	.	.	32dd\JJJ)	.	.	32d\JJJ)	.	.	.	.	.	.	.	.	.	.
!	!	!	!	!LO:LB:g=original	!	!	!	!	!	!	!	!	!	!	!	!	!	!	!
8C/L	.	8e-\L	.	8g/L	.	8b-\L	.	.	32B-\LLL	.	.	32g\LLL	.	.	.	.	.	.	.
.	.	.	.	.	.	.	.	.	(32c\	.	.	(32a\	.	.	.	.	.	.	.
.	.	.	.	.	.	.	.	.	32B-\)	.	.	32g\	.	.	.	.	.	.	.
.	.	.	.	.	.	.	.	.	32A\JJJ	.	.	32f#X\JJJ)	.	.	.	.	.	.	.
.	.	.	.	.	.	16qqa/	.	.	.	.	.	.	.	.	.	.	.	.	.
8C/	.	8e-\	.	8g/	.	8b-\	.	.	8B-\	-tur	.	8g\	-tur	.	.	.	.	.	.
.	.	.	.	.	.	16qqa/	.	.	.	.	.	.	.	.	.	.	.	.	.
8C/	.	8e-\	.	8g/	.	8b-\	.	.	(32B-\LLL	con-	.	32g\LLL	con-	.	.	.	.	.	.
.	.	.	.	.	.	.	.	.	32c\	.	.	32a\	.	.	.	.	.	.	.
.	.	.	.	.	.	.	.	.	32B-\	.	.	32g\	.	.	.	.	.	.	.
.	.	.	.	.	.	.	.	.	32A\JJJ)	.	.	32f#X\JJJ	.	.	.	.	.	.	.
.	.	.	.	.	.	16qqa/	.	.	.	.	.	.	.	.	.	.	.	.	.
8C/J	.	8e-\J	.	8g/J	.	8b-\J	.	.	8B-\	-ver-	.	8g\	-ver-	.	.	.	.	.	.
*2\right	*	*Xtremolo	*	*	*	*	*	*	*	*	*	*	*	*	*	*	*	*	*
=22	=22	=22	=22	=22	=22	=22	=22	=22	=22	=22	=22	=22	=22	=22	=22	=22	=22	=22	=22
!	!	!	!	!LO:TX:t=P:problem:mixed beam	!	!	!	!	!	!	!	!	!	!	!	!	!	!	!
4C/	.	4e-\	.	8g/L	.	8b-\L	.	1ryy	8B-\L	-ten-	.	8g\L	-ten-	.	1ryy	1ryy	1ryy	1ryy	1ryy
.	.	.	.	(16ee-\L	.	(16gg\L	.	.	(16g\L	.	.	16ee-\L	.	.	.	.	.	.	.
.	.	.	.	16dd\JJ)	.	16ff\JJ)	.	.	16f\JJ)	.	.	16dd\JJ	.	.	.	.	.	.	.
!LO:TX:b:i:t=Dolce	!	!	!	!	!	!	!	!	!	!	!	!	!	!	!	!	!	!	!
8r	.	8r	.	(16cc\LL	.	(32een\LLL	.	.	32en\LLL	.	.	16cc\LL	.	.	.	.	.	.	.
.	.	.	.	.	.	32ff\)	.	.	32f\	.	.	.	.	.	.	.	.	.	.
.	.	.	.	16b-\	.	(32dd\	.	.	32d\	.	.	16b-\	.	.	.	.	.	.	.
.	.	.	.	.	.	32ee\JJJ)	.	.	32e\JJJ	.	.	.	.	.	.	.	.	.	.
8C/	.	8c\	.	16a\	.	(32cc\LLL	.	.	32c\LLL	.	.	16a\	.	.	.	.	.	.	.
.	.	.	.	.	.	32dd\)	.	.	32d\	.	.	.	.	.	.	.	.	.	.
.	.	.	.	16g\JJ)	.	(32b-\	.	.	32B-\	.	.	16g\JJ	.	.	.	.	.	.	.
.	.	.	.	.	.	32cc\JJJ)	.	.	32c\JJJ	.	.	.	.	.	.	.	.	.	.
!	!	!	!	!	!	!LO:TX:a:i:t=dolce	!	!	!	!	!	!	!	!	!	!	!	!	!
!	!	!LO:TX:b:i:t=Dulce	!	!	!	!LO:TUP:a:problem:klamra łukowa	!	!	!LO:TUP:a:problem:klamra łukowa	!	!	!	!	!	!	!	!	!	!
!	!	!	!	!	!	!	!	!	!LO:TX:t=P:problem:kropka zamiast 3	!	!	!LO:TX:t=P:problem:kropka zamiast 3	!	!	!	!	!	!	!
8F\L	.	(16A/LL	.	(16f/LL	.	24a/LL	.	.	24A\LL	.	.	24f\LL	.	.	.	.	.	.	.
.	.	.	.	.	.	24b-/	.	.	24B-\	.	.	24g\	.	.	.	.	.	.	.
!	!	!	!	!LO:TX:i:a:t=Dulce	!	!	!	!	!	!	!	!	!	!	!	!	!	!	!
.	.	16c/)	.	16a/)	.	.	.	.	.	.	.	.	.	.	.	.	.	.	.
.	.	.	.	.	.	24cc/JJ	.	.	24c\JJ	.	.	24a\JJ	.	.	.	.	.	.	.
8F\	.	(16A/	.	(16f/	.	8.cc\L	.	.	8.c\	-tur	.	8.a\	-tur	.	.	.	.	.	.
.	.	16c/JJ)	.	16a/JJ)	.	.	.	.	.	.	.	.	.	.	.	.	.	.	.
!	!	!LO:LB:g=original	!	!	!	!	!	!	!	!	!	!	!	!	!	!	!	!	!
8F\	.	(16A/LL	.	(16f/LL	.	.	.	.	.	.	.	.	.	.	.	.	.	.	.
.	.	16c/)	.	16a/)	.	16a\Jk	.	.	(16A\	do	.	(16f\	do-	.	.	.	.	.	.
8F\J	.	(16A/	.	(16f/	.	16b-\LL	.	.	16B-\LL	.	.	16g\LL	.	.	.	.	.	.	.
.	.	16c/JJ)	.	16a/JJ)	.	16cc\JJ	.	.	16c\JJ)	.	.	16a\JJ)	.	.	.	.	.	.	.
*Xtremolo	*	*	*	*	*	*	*	*	*	*	*	*	*	*	*	*	*	*	*
!	!	!	!	!	!	!	!	!	!	!	!	!LO:LB:g=original	!	!	!	!	!	!	!
!	!	!	!	!	!	!	!	!	!LO:LB:g=original	!	!	!	!	!	!	!	!	!	!
=23	=23	=23	=23	=23	=23	=23	=23	=23	=23	=23	=23	=23	=23	=23	=23	=23	=23	=23	=23
!	!	!	!	!	!	!LO:TUP:a:problem:klamra łukowa	!	!	!LO:TUP:a:problem:klamra łukowa	!	!	!LO:TUP:a:problem:klamra łukowa	!	!	!	!	!	!	!
!	!	!	!	!	!	!	!	!	!	!	!	!LO:TX:t=P:problem:kropka zamiast 3	!	!	!	!	!	!	!
8r	.	(16B-/LL	.	(16f/LL	.	24dd\LL	.	1ryy	24d\LL	-ce-	.	24b-\LL	-ce-	.	1ryy	1ryy	1ryy	1ryy	1ryy
.	.	.	.	.	.	24ee-\	.	.	24e-\	.	.	24cc\	.	.	.	.	.	.	.
.	.	16d/)	.	16b-/)	.	.	.	.	.	.	.	.	.	.	.	.	.	.	.
.	.	.	.	.	.	24ff\JJ	.	.	24f\JJ	.	.	24dd\JJ	.	.	.	.	.	.	.
!	!	!	!	!	!	!LO:N:vis=16.	!	!	!	!	!	!	!	!	!	!	!	!	!
8BB-/L	.	(16B-/	.	(16f/	.	8.ff\L	.	.	4f\	-bo	.	4dd\	-bo	.	.	.	.	.	.
.	.	16d/JJ)	.	16b-/JJ)	.	.	.	.	.	.	.	.	.	.	.	.	.	.	.
8BB-/	.	(16B-/LL	.	(16f/LL	.	.	.	.	.	.	.	.	.	.	.	.	.	.	.
!	!	!	!	!	!	!LO:N:vis=32	!	!	!	!	!	!	!	!	!	!	!	!	!
.	.	16d/)	.	16b-/)	.	16ff\Jk	.	.	.	.	.	.	.	.	.	.	.	.	.
8BB-/J	.	(16B-/	.	(16f/	.	16ee-\LL	.	.	16e-\LL	i-	.	16cc\LL	i-	.	.	.	.	.	.
.	.	16d/JJ)	.	16b-/JJ)	.	16dd\JJ	.	.	16d\JJ	.	.	16b-\JJ	.	.	.	.	.	.	.
!	!	!	!	!	!	!	!	!	!	!	!	!LO:TUP:a:problem:klamra łukowa	!	!	!	!	!	!	!
!	!	!	!	!	!	!	!	!	!	!	!	!LO:TX:t=P:problem:kropka zamiast 3	!	!	!	!	!	!	!
*	*	*	*	*	*	*	*	*	*Xtuplet	*	*	*	*	*	*	*	*	*	*
8r	.	(16A/LL	.	(16f/LL	.	24cc\LL	.	.	24c\LL	-ni-	.	24a\LL	-ni-	.	.	.	.	.	.
.	.	.	.	.	.	24b-\	.	.	24B-\	.	.	24g\	.	.	.	.	.	.	.
.	.	16c/)	.	16a/)	.	.	.	.	.	.	.	.	.	.	.	.	.	.	.
.	.	.	.	.	.	24a\JJ	.	.	24A\JJ	.	.	24f\JJ	.	.	.	.	.	.	.
*	*	*	*	*	*	*	*	*	*tuplet	*	*	*	*	*	*	*	*	*	*
!	!	!	!	!	!	!LO:LB:g=original	!	!	!	!	!	!	!	!	!	!	!	!	!
8C/L	.	(16A/	.	(16f/	.	8.a/L	.	.	8.A/L	-quos	.	8.f\L	-quos	.	.	.	.	.	.
.	.	16c/JJ)	.	16a/JJ)	.	.	.	.	.	.	.	.	.	.	.	.	.	.	.
8C/	.	(16G/LL	.	16en/LL	.	.	.	.	.	.	.	.	.	.	.	.	.	.	.
.	.	16B-/)	.	16g/	.	16g/Jk	.	.	16G/Jk	.	.	16e-\Jk	.	.	.	.	.	.	.
8C/J	.	(16G/	.	16e/	.	16dd\LL	.	.	16d\	vi-	.	16b-\	vi-	.	.	.	.	.	.
.	.	16B-/JJ)	.	16g/JJ	.	16b-\JJ	.	.	16B-\	-as	.	16g\	-as	.	.	.	.	.	.
=24	=24	=24	=24	=24	=24	=24	=24	=24	=24	=24	=24	=24	=24	=24	=24	=24	=24	=24	=24
8F\L	.	(16F/LL	.	(16f/LL	.	8b-\L	.	1ryy	8B-\L	tu-	.	8g\	tu-	.	1ryy	1ryy	1ryy	1ryy	1ryy
.	.	16c/)	.	16a/)	.	.	.	.	.	.	.	.	.	.	.	.	.	.	.
8C\J	.	(16A/	.	(16f/	.	16.a\L	.	.	32A\LL	.	.	32f\LLL	.	.	.	.	.	.	.
.	.	.	.	.	.	.	.	.	32B-\	.	.	32g\	.	.	.	.	.	.	.
.	.	16c/JJ)	.	16a/JJ)	.	.	.	.	32A\	.	.	32f\	.	.	.	.	.	.	.
.	.	.	.	.	.	32b-\JJk	.	.	32B-\JJJ	.	.	32g\JJJ	.	.	.	.	.	.	.
8AA/L	.	(16A/LL	.	(16f/LL	.	8cc\	.	.	8c\	-as	.	8a\	-as	.	.	.	.	.	.
.	.	16c/)	.	16a/)	.	.	.	.	.	.	.	.	.	.	.	.	.	.	.
!	!	!	!	!	!	!	!LO:DY:a:t=p&colon;	!	!	!	!	!	!	!	!	!	!	!	!
8FF/J	.	(16A/	.	(16f/	.	16r	p	.	16r	.	.	16r	.	.	.	.	.	.	.
!	!	!	!	!	!	!	!	!	!	!	!LO:DY:a	!	!	!LO:DY:a	!	!	!	!	!
!	!	!	!	!	!	!	!	!	!	!	!	!	!	!LO:DY:t=p&colon;	!	!	!	!	!
.	.	16c/JJ)	.	16a/JJ)	.	16b-\	.	.	16B-\	et	/	16g\	et	p	.	.	.	.	.
!	!	!	!	!	!	!LO:TUP:a:problem:klamra łukowa	!	!	!LO:TUP:a:problem:klamra łukowa	!	!	!LO:TX:t=P:problem:zbędna kreska taktowa	!	!	!	!	!	!	!
!	!	!	!	!	!LO:DY:b	!	!	!	!	!	!	!LO:TX:t=P:problem:kropka zamiast 3	!	!	!	!	!	!	!
!	!	!	!LO:DY:b	!	!	!	!	!	!	!	!	!	!	!	!	!	!	!	!
8r	.	(16A/LL	p	(16f/LL	p	24a\LL	.	.	24A\LL	im-	.	24f\LL	im-	.	.	.	.	.	.
.	.	.	.	.	.	24b-\	.	.	24B-\	.	.	24g\	.	.	.	.	.	.	.
.	.	16c/)	.	16a/)	.	.	.	.	.	.	.	.	.	.	.	.	.	.	.
.	.	.	.	.	.	24cc\JJ	.	.	24c\JJ	.	.	24a\JJ	.	.	.	.	.	.	.
!	!LO:DY:b	!	!	!	!	!	!	!	!	!	!	!	!	!	!	!	!	!	!
8F\L	p	(16A/	.	(16f/	.	8.cc\L	.	.	8.c\L	.	.	8.a\L	.	.	.	.	.	.	.
.	.	16c/JJ)	.	16a/JJ)	.	.	.	.	.	.	.	.	.	.	.	.	.	.	.
8F\	.	(16A/LL	.	(16f/LL	.	.	.	.	.	.	.	.	.	.	.	.	.	.	.
.	.	16c/)	.	16a/)	.	16a\Jk	.	.	16A\Jk	.	.	16f\Jk	.	.	.	.	.	.	.
8F\J	.	(16A/	.	(16f/	.	16b-\LL	.	.	16B-\LL	.	.	16g\LL	-pi-	.	.	.	.	.	.
.	.	16c/JJ)	.	16a/JJ)	.	16cc\JJ	.	.	16c\JJ	.	.	16a\JJ	.	.	.	.	.	.	.
=25	=25	=25	=25	=25	=25	=25	=25	=25	=25	=25	=25	=25	=25	=25	=25	=25	=25	=25	=25
!	!	!	!	!	!	!LO:TUP:a:problem:klamra łukowa	!	!	!	!	!	!	!	!	!	!	!	!	!
*	*	*	*	*	*	*	*	*	*Xtuplet	*	*	*	*	*	*	*	*	*	*
8r	.	(16B-/LL	.	(16f/LL	.	24dd\LL	.	1ryy	24d\LL	-pi-	.	24b-\LL	.	.	1ryy	1ryy	1ryy	1ryy	1ryy
.	.	.	.	.	.	24ee-\	.	.	24e-\	.	.	24cc\	.	.	.	.	.	.	.
.	.	16d/)	.	16b-/)	.	.	.	.	.	.	.	.	.	.	.	.	.	.	.
.	.	.	.	.	.	24ff\JJ	.	.	24f\JJ	.	.	24dd\JJ	.	.	.	.	.	.	.
*	*	*	*	*	*	*Xtuplet	*	*	*tuplet	*	*	*	*	*	*	*	*	*	*
8BB-/L	.	(16B-/	.	(16f/	.	8.ff\L	.	.	4f\	-i	.	4dd\	-i	.	.	.	.	.	.
.	.	16d/JJ)	.	16b-/JJ)	.	.	.	.	.	.	.	.	.	.	.	.	.	.	.
8BB-/	.	(16B-/LL	.	(16f/LL	.	.	.	.	.	.	.	.	.	.	.	.	.	.	.
.	.	16d/)	.	16b-/)	.	16ff\Jk	.	.	.	.	.	.	.	.	.	.	.	.	.
.	.	.	.	.	.	.	.	.	8qqf/	.	.	.	.	.	.	.	.	.	.
8BB-/J	.	(16B-/	.	(16f/	.	16ee-\LL	.	.	16e-\	ad	.	16cc\	ad	.	.	.	.	.	.
.	.	16d/JJ)	.	16b-/JJ)	.	16dd\JJ	.	.	16d\	te	.	16b-\	te	.	.	.	.	.	.
!	!	!	!	!LO:LB:g=original	!	!	!	!	!	!	!	!	!	!	!	!	!	!	!
8AA/L	.	(16A/LL	.	(16f/LL	.	8cc\L	.	.	8c\	con-	.	8a\L	con-	.	.	.	.	.	.
.	.	16c/)	.	16a/JJ)	.	.	.	.	.	.	.	.	.	.	.	.	.	.	.
!	!	!	!	!LO:TUP:a:problem:klamra łukowa	!	!	!	!	!LO:TUP:a:problem:klamra łukowa	!	!	!LO:TUP:a:problem:klamra łukowa	!	!	!	!	!	!	!
8BB-/	.	(16B-/	.	24b-/LL	.	24dd\L	.	.	24d\LL	-ver-	.	24b-\L	-ver-	.	.	.	.	.	.
.	.	.	.	24a/	.	24cc\	.	.	24c\	.	.	24a\	.	.	.	.	.	.	.
.	.	16d/JJ)	.	.	.	.	.	.	.	.	.	.	.	.	.	.	.	.	.
.	.	.	.	24g/JJ	.	24b-\JJ	.	.	24B-\JJ	.	.	24g\JJ	.	.	.	.	.	.	.
8C/	.	8c/L	.	8f/L	.	8a/L	.	.	8B-\	-ten-	.	8f\	-ten-	.	.	.	.	.	.
8CC/J	.	8c/J	.	8e-/J	.	8g/J	.	.	8G/	-tur	.	8e-\	-tur	.	.	.	.	.	.
!	!	!	!	!	!	!	!	!	!	!	!	!LO:LB:g=original	!	!	!	!	!	!	!
!	!	!	!	!	!	!	!	!	!LO:LB:g=original	!	!	!	!	!	!	!	!	!	!
=26	=26	=26	=26	=26	=26	=26	=26	=26	=26	=26	=26	=26	=26	=26	=26	=26	=26	=26	=26
4FF/	.	8F/L	.	8ff`\L	.	8aa'\L	.	1ryy	8a\	con-	.	8f\L	con-	.	1ryy	1ryy	1ryy	1ryy	1ryy
.	.	8G/	.	16ee-`\L	.	16gg'\L	.	.	32g\LLL	.	.	16e-\L	.	.	.	.	.	.	.
.	.	.	.	.	.	.	.	.	32a\	.	.	.	.	.	.	.	.	.	.
.	.	.	.	16dd`\JJ	.	16ff'\JJ	.	.	32f\	.	.	16d\JJ	.	.	.	.	.	.	.
.	.	.	.	.	.	.	.	.	32g\JJJ	.	.	.	.	.	.	.	.	.	.
8r	.	8A/	.	16cc`\LL	.	16ee-'\LL	.	.	32e-\LLL	.	.	16c\LL	.	.	.	.	.	.	.
.	.	.	.	.	.	.	.	.	32f\	.	.	.	.	.	.	.	.	.	.
.	.	.	.	16b-`\	.	16dd'\	.	.	32d\	.	.	16b-\	.	.	.	.	.	.	.
.	.	.	.	.	.	.	.	.	32e-\JJJ	.	.	.	.	.	.	.	.	.	.
8C/	.	8B-/J	.	16a`\	.	16cc'\	.	.	32c\LLL	.	.	16a\	.	.	.	.	.	.	.
.	.	.	.	.	.	.	.	.	32d\	.	.	.	.	.	.	.	.	.	.
.	.	.	.	16g`\JJ	.	16b-'\JJ	.	.	32B-\	.	.	16g\JJ	.	.	.	.	.	.	.
.	.	.	.	.	.	.	.	.	32c\JJJ	.	.	.	.	.	.	.	.	.	.
!	!	!	!	!	!	!	!	!	!LO:TUP:a:problem:klamra łukowa	!	!	!	!	!	!	!	!	!	!
*	*	*	*	*	*	*tuplet	*	*	*	*	*	*	*	*	*	*	*	*	*
8AA/L	.	8c/L	.	16f/LL	.	24a\LL	.	.	24B-\LL	.	.	16f\LL	.	.	.	.	.	.	.
.	.	.	.	.	.	24ff\	.	.	24f\	.	.	.	.	.	.	.	.	.	.
.	.	.	.	16a/JJ	.	.	.	.	.	.	.	16a\JJ	.	.	.	.	.	.	.
.	.	.	.	.	.	24ee-\JJ	.	.	24e-\JJ	.	.	.	.	.	.	.	.	.	.
!	!	!LO:TUP:a:problem:klamra łukowa	!	!LO:TUP:a:problem:klamra łukowa	!	!	!	!	!LO:TUP:a:problem:klamra łukowa	!	!	!	!	!	!	!	!	!	!
8BB-/	.	24B-/L	.	24b-/LL	.	24dd\LL	.	.	24d\LL	-ver-	.	24b-\LL	-ver-	.	.	.	.	.	.
.	.	24c/	.	24a/	.	24cc\	.	.	24c\	.	.	24a\	.	.	.	.	.	.	.
.	.	24d/JJ	.	24g/JJ	.	24b-\JJ	.	.	24B-\JJ	.	.	24g\JJ	.	.	.	.	.	.	.
8C/	.	8c\L	.	8f/L	.	8a/L	.	.	8A\L	-ten-	.	8f\L	-ten-	.	.	.	.	.	.
!	!	!LO:SIC:s=en	!	!	!	!	!	!	!	!	!	!	!	!	!	!	!	!	!
8CC/J	.	8e-\J	.	8B-/J	.	8g/J	.	.	8G\J	.	.	8c\J	.	.	.	.	.	.	.
!	!	!LO:LB:g=original	!	!	!	!	!	!	!	!	!	!	!	!	!	!	!	!	!
=27	=27	=27	=27	=27	=27	=27	=27	=27	=27	=27	=27	=27	=27	=27	=27	=27	=27	=27	=27
!	!	!LO:SIC:s=en	!	!	!	!	!LO:DY:a	!	!	!	!	!	!	!	!	!	!	!	!
!	!	!	!	!	!	!	!LO:DY:t=for	!	!	!	!	!	!	!	!	!	!	!	!
4C/	.	4e-\	.	4B-/	.	4g/	f	1ryy	(4G/	-tur	.	4c/	-tur	.	1ryy	1ryy	1ryy	1ryy	1ryy
8FF/	.	8c\	.	8A/	.	8f/	.	.	8F/)	.	.	8A/	.	.	.	.	.	.	.
!	!	!	!	!	!LO:DY:b	!LO:TX:a:i:t=dolce	!	!	!	!	!	!	!	!	!	!	!	!	!
8r	.	8r	.	8r	ff	16b-/LL	.	.	8r	.	.	8r	.	.	.	.	.	.	.
.	.	.	.	.	.	16g/JJ	.	.	.	.	.	.	.	.	.	.	.	.	.
!	!	!LO:TX:a:i:t=dulce	!	!LO:TX:a:i:t=Dulce	!	!	!	!	!	!	!	!	!	!	!	!	!	!	!
.	.	.	.	.	.	32qqf	.	.	.	.	.	.	.	.	.	.	.	.	.
!LO:LB:g=original	!	!	!LO:DY:b	!	!	!	!	!	!	!	!	!	!	!	!	!	!	!	!
!	!LO:DY:b	!	!	!	!	!	!	!	!	!	!	!	!	!	!	!	!	!	!
8r	ff	(16G/LL	f	(16B-/LL	.	16e-/LL	.	.	2r	.	.	2r	.	.	.	.	.	.	.
.	.	16B-/)	.	16c/)	.	16e-/	.	.	.	.	.	.	.	.	.	.	.	.	.
8C/L	.	(16G/	.	(16B-/	.	16e-/	.	.	.	.	.	.	.	.	.	.	.	.	.
.	.	16B-/JJ)	.	16c/JJ)	.	16e-/JJ	.	.	.	.	.	.	.	.	.	.	.	.	.
!	!	!	!	!	!	!LO:LB:g=original	!	!	!	!	!	!	!	!	!	!	!	!	!
8C/	.	(16G/LL	.	(16B-/LL	.	8e-'/L	.	.	.	.	.	.	.	.	.	.	.	.	.
.	.	16B-/)	.	16c/)	.	.	.	.	.	.	.	.	.	.	.	.	.	.	.
8C/J	.	(16G/	.	(16B-/	.	(16g/L	.	.	.	.	.	.	.	.	.	.	.	.	.
.	.	16B-/JJ)	.	16c/JJ)	.	16e-/JJ)	.	.	.	.	.	.	.	.	.	.	.	.	.
=28	=28	=28	=28	=28	=28	=28	=28	=28	=28	=28	=28	=28	=28	=28	=28	=28	=28	=28	=28
!	!	!	!	!	!	!	!	!	!LO:TX:a:t=5	!	!	!	!	!	!	!	!	!	!
8r	.	(16F/LL	.	(16A/LL	.	(16f/LL	.	1ryy	1r	.	.	1r	.	.	1ryy	1ryy	1ryy	1ryy	1ryy
.	.	16A/)	.	16c/)	.	16a/	.	.	.	.	.	.	.	.	.	.	.	.	.
8F\L	.	(16F/	.	(16A/	.	16cc/	.	.	.	.	.	.	.	.	.	.	.	.	.
.	.	16A/JJ)	.	16c/JJ)	.	16cc/JJ)	.	.	.	.	.	.	.	.	.	.	.	.	.
8F\	.	(16F/LL	.	(16A/LL	.	8cc/L	.	.	.	.	.	.	.	.	.	.	.	.	.
.	.	16A/)	.	16c/)	.	.	.	.	.	.	.	.	.	.	.	.	.	.	.
!	!	!	!	!	!	!LO:TUP:a:problem:klamra łukowa	!	!	!	!	!	!	!	!	!	!	!	!	!
8F\J	.	(16F/	.	(16A/	.	24b-/L	.	.	.	.	.	.	.	.	.	.	.	.	.
.	.	.	.	.	.	24a/	.	.	.	.	.	.	.	.	.	.	.	.	.
.	.	16A/JJ)	.	16c/JJ)	.	.	.	.	.	.	.	.	.	.	.	.	.	.	.
.	.	.	.	.	.	24g/JJ	.	.	.	.	.	.	.	.	.	.	.	.	.
.	.	.	.	.	.	8qqf/	.	.	.	.	.	.	.	.	.	.	.	.	.
8r	.	(16G/LL	.	(16B-/LL	.	16e-'/LL	.	.	.	.	.	.	.	.	.	.	.	.	.
.	.	16B-/)	.	16c/)	.	16e-'/	.	.	.	.	.	.	.	.	.	.	.	.	.
8C/L	.	(16G/	.	(16B-/	.	16e-'/	.	.	.	.	.	.	.	.	.	.	.	.	.
.	.	16B-/JJ)	.	16c/JJ)	.	16e-'/JJ	.	.	.	.	.	.	.	.	.	.	.	.	.
8C/	.	(16G/LL	.	(16B-/LL	.	8e-/L	.	.	.	.	.	.	.	.	.	.	.	.	.
.	.	16B-/)	.	16c/)	.	.	.	.	.	.	.	.	.	.	.	.	.	.	.
8C/J	.	(16G/	.	(16B-/	.	16g/L	.	.	.	.	.	.	.	.	.	.	.	.	.
!	!	!	!	!LO:TX:b:i:t=V&colon; S&colon; Cito	!	!	!	!	!	!	!	!	!	!	!	!	!	!	!
.	.	16B-/JJ)	.	16c/JJ)	.	16e-/JJ	.	.	.	.	.	.	.	.	.	.	.	.	.
!	!	!	!	!LO:LB:g=original	!	!	!	!	!	!	!	!	!	!	!	!	!	!	!
=29	=29	=29	=29	=29	=29	=29	=29	=29	=29	=29	=29	=29	=29	=29	=29	=29	=29	=29	=29
8r	.	(16F/LL	.	(16A/LL	.	16f/LL	.	1ryy	1r	.	.	1r	.	.	1ryy	1ryy	1ryy	1ryy	1ryy
.	.	16A/)	.	16c/)	.	16a/	.	.	.	.	.	.	.	.	.	.	.	.	.
8F\L	.	(16F/	.	(16A/	.	16cc/	.	.	.	.	.	.	.	.	.	.	.	.	.
.	.	16A/JJ)	.	16c/JJ)	.	16cc/JJ	.	.	.	.	.	.	.	.	.	.	.	.	.
8F\	.	16F/LL	.	16A/LL	.	8cc/L	.	.	.	.	.	.	.	.	.	.	.	.	.
.	.	16A/	.	(16c/	.	.	.	.	.	.	.	.	.	.	.	.	.	.	.
8F\J	.	16F/	.	16f/	.	16a/L	.	.	.	.	.	.	.	.	.	.	.	.	.
!	!	!	!	!	!	!	!LO:DY:b:t=f&colon;	!	!	!	!	!	!	!	!	!	!	!	!
.	.	16c/JJ	.	16a/JJ)	.	16b-/JJ	f	.	.	.	.	.	.	.	.	.	.	.	.
!	!	!LO:TX:t=P:problem:mixed beam	!	!	!	!	!	!	!	!	!	!	!	!	!	!	!	!	!
!	!	!	!	!	!LO:DY:b	!	!	!	!	!	!	!	!	!	!	!	!	!	!
8F\L	.	8f\L	.	8a/L	f	16cc\LL	.	.	.	.	.	.	.	.	.	.	.	.	.
.	.	.	.	.	.	16ff\JJ	.	.	.	.	.	.	.	.	.	.	.	.	.
!	!	!	!	!LO:TUP:a:problem:klamra łukowa	!	!LO:TUP:a:problem:klamra łukowa	!	!	!	!	!	!	!	!	!	!	!	!	!
.	.	.	.	.	.	16qqee-/	.	.	.	.	.	.	.	.	.	.	.	.	.
16D\L	.	24B-/L	.	24b-/L	.	24dd\LL	.	.	.	.	.	.	.	.	.	.	.	.	.
.	.	24c/	.	24a/	.	24cc\	.	.	.	.	.	.	.	.	.	.	.	.	.
16BB-\JJ	.	.	.	.	.	.	.	.	.	.	.	.	.	.	.	.	.	.	.
.	.	24d/JJ	.	24g/JJ	.	24b-\JJ	.	.	.	.	.	.	.	.	.	.	.	.	.
!LO:TX:t=P:problem:mixed beam	!	!	!	!	!	!	!	!	!	!	!	!	!	!	!	!	!	!	!
8C\L	.	8c/L	.	8f/L	.	8a/L	.	.	.	.	.	.	.	.	.	.	.	.	.
8CC/J	.	8c/J	.	8e-/J	.	8g/J	.	.	.	.	.	.	.	.	.	.	.	.	.
=30	=30	=30	=30	=30	=30	=30	=30	=30	=30	=30	=30	=30	=30	=30	=30	=30	=30	=30	=30
!	!	!	!	!	!	!LO:TX:a:i:t=dolce	!	!	!	!	!	!	!	!	!	!	!	!	!
8r	.	16.A/LL	.	16.f/LL	.	16.a\LL	.	1ryy	1r	.	.	1r	.	.	1ryy	1ryy	1ryy	1ryy	1ryy
!	!	!	!	!LO:TX:a:i:t=Dulce	!	!	!	!	!	!	!	!	!	!	!	!	!	!	!
.	.	32B-/K	.	32g/K	.	32b-\K	.	.	.	.	.	.	.	.	.	.	.	.	.
8F\L	.	16c/	.	16a/	.	16cc\	.	.	.	.	.	.	.	.	.	.	.	.	.
.	.	16c/JJ	.	16a/JJ	.	16cc\JJ	.	.	.	.	.	.	.	.	.	.	.	.	.
8A\	.	8c/L	.	8a/L	.	8cc\L	.	.	.	.	.	.	.	.	.	.	.	.	.
8F\J	.	16B-/L	.	16g/L	.	16b-\L	.	.	.	.	.	.	.	.	.	.	.	.	.
.	.	16A/JJ	.	16f/JJ	.	16a\JJ	.	.	.	.	.	.	.	.	.	.	.	.	.
8r	.	16.d\LL	.	16.b-\LL	.	16.dd\LL	.	.	.	.	.	.	.	.	.	.	.	.	.
.	.	32e-\K	.	32cc\K	.	32dd\K	.	.	.	.	.	.	.	.	.	.	.	.	.
8BB-/L	.	16f\	.	16dd\	.	16ee-\	.	.	.	.	.	.	.	.	.	.	.	.	.
.	.	16f\JJ	.	16dd\JJ	.	16ff\JJ	.	.	.	.	.	.	.	.	.	.	.	.	.
.	.	16qqg/	.	8qqee-/	.	16qqgg/	.	.	.	.	.	.	.	.	.	.	.	.	.
8D/	.	8f\L	.	8dd\L	.	8.ff\L	.	.	.	.	.	.	.	.	.	.	.	.	.
8BB-/J	.	16e-\L	.	16cc\L	.	.	.	.	.	.	.	.	.	.	.	.	.	.	.
.	.	16d\JJ	.	16b-\JJ	.	32ee-\LL	.	.	.	.	.	.	.	.	.	.	.	.	.
.	.	.	.	.	.	32dd\JJJ	.	.	.	.	.	.	.	.	.	.	.	.	.
!	!	!LO:LB:g=original	!	!	!	!	!	!	!	!	!	!	!	!	!	!	!	!	!
=31	=31	=31	=31	=31	=31	=31	=31	=31	=31	=31	=31	=31	=31	=31	=31	=31	=31	=31	=31
8AA/L	.	8c\L	.	8a/L	.	8cc\L	.	1ryy	1r	.	.	1r	.	.	1ryy	1ryy	1ryy	1ryy	1ryy
!	!	!	!	!LO:TUP:a:problem:klamra łukowa	!	!	!	!	!	!	!	!	!	!	!	!	!	!	!
.	.	.	.	.	.	16qqee-/	.	.	.	.	.	.	.	.	.	.	.	.	.
8BB-/	.	16B-\L	.	24b-/L	.	24dd\L	.	.	.	.	.	.	.	.	.	.	.	.	.
.	.	.	.	24a/	.	24cc\	.	.	.	.	.	.	.	.	.	.	.	.	.
.	.	16d\JJ	.	.	.	.	.	.	.	.	.	.	.	.	.	.	.	.	.
.	.	.	.	24g/JJ	.	24b-\JJ	.	.	.	.	.	.	.	.	.	.	.	.	.
8C/	.	8c\L	.	8f/L	.	8a/L	.	.	.	.	.	.	.	.	.	.	.	.	.
!	!	!	!	!LO:SIC:s=en	!	!	!	!	!	!	!	!	!	!	!	!	!	!	!
8CC/J	.	8c\J	.	8e-/J	.	8g/J	.	.	.	.	.	.	.	.	.	.	.	.	.
!	!	!	!	!	!	!	!LO:DY:a:t=p&colon;	!	!	!	!	!	!	!	!	!	!	!	!
!	!	!	!	!	!LO:DY:b	!	!	!	!	!	!	!	!	!	!	!	!	!	!
!	!	!	!LO:DY:b	!	!	!	!	!	!	!	!	!	!	!	!	!	!	!	!
8r	.	(16A/LL	p	(16f/LL	p	16a/LL	p	.	.	.	.	.	.	.	.	.	.	.	.
.	.	16B-/	.	16g/	.	(16b-/	.	.	.	.	.	.	.	.	.	.	.	.	.
!	!LO:DY:b	!	!	!	!	!	!	!	!	!	!	!	!	!	!	!	!	!	!
8F\L	p	16c/)	.	16a/	.	16cc/	.	.	.	.	.	.	.	.	.	.	.	.	.
.	.	16c/JJ	.	16a/JJ)	.	16cc/JJ)	.	.	.	.	.	.	.	.	.	.	.	.	.
!	!	!	!	!	!	!LO:LB:g=original	!	!	!	!	!	!	!	!	!	!	!	!	!
.	.	16qqd/	.	.	.	16qqdd/	.	.	.	.	.	.	.	.	.	.	.	.	.
8A\	.	8c/L	.	8a/L	.	8cc\L	.	.	.	.	.	.	.	.	.	.	.	.	.
8F\J	.	16B-/L	.	16g/L	.	16b-\L	.	.	.	.	.	.	.	.	.	.	.	.	.
.	.	16A/JJ	.	16f/JJ	.	16a\JJ	.	.	.	.	.	.	.	.	.	.	.	.	.
=32	=32	=32	=32	=32	=32	=32	=32	=32	=32	=32	=32	=32	=32	=32	=32	=32	=32	=32	=32
8r	.	(16d\LL	.	(16b-\LL	.	(16dd\LL	.	1ryy	1r	.	.	1r	.	.	1ryy	1ryy	1ryy	1ryy	1ryy
.	.	16e-\	.	16cc\	.	16ee-\	.	.	.	.	.	.	.	.	.	.	.	.	.
8BB-/L	.	16f\)	.	16dd\)	.	16ff\)	.	.	.	.	.	.	.	.	.	.	.	.	.
.	.	16f\JJ	.	16dd\JJ	.	16ff\JJ	.	.	.	.	.	.	.	.	.	.	.	.	.
.	.	16qqg/	.	.	.	16qqgg/	.	.	.	.	.	.	.	.	.	.	.	.	.
8D/	.	8f\L	.	8dd\L	.	8ff\L	.	.	.	.	.	.	.	.	.	.	.	.	.
8BB-/J	.	16e-\L	.	16cc\L	.	16ee-\L	.	.	.	.	.	.	.	.	.	.	.	.	.
.	.	16d\JJ	.	16b-\JJ	.	16dd\JJ	.	.	.	.	.	.	.	.	.	.	.	.	.
!	!	!	!	!	!LO:DY:b	!	!LO:DY:a:t=f&colon;	!	!	!	!	!	!	!	!	!	!	!	!
!	!	!	!LO:DY:b	!	!	!	!	!	!	!	!	!	!	!	!	!	!	!	!
8AA/L	.	8c\L	f	8a/L	f	8cc\L	f	.	.	.	.	.	.	.	.	.	.	.	.
!	!	!	!	!LO:TUP:a:problem:klamra łukowa	!	!LO:TUP:a:problem:klamra łukowa	!	!	!	!	!	!	!	!	!	!	!	!	!
8BB-/	.	16B-\L	.	24b-/L	.	24dd\L	.	.	.	.	.	.	.	.	.	.	.	.	.
.	.	.	.	24a/	.	24cc\	.	.	.	.	.	.	.	.	.	.	.	.	.
.	.	16d\JJ	.	.	.	.	.	.	.	.	.	.	.	.	.	.	.	.	.
.	.	.	.	24g/JJ	.	24b-\JJ	.	.	.	.	.	.	.	.	.	.	.	.	.
8C/	.	8c\L	.	8f/L	.	8a/L	.	.	.	.	.	.	.	.	.	.	.	.	.
8CC/J	.	8c\J	.	8c/J	.	8g/J	.	.	.	.	.	.	.	.	.	.	.	.	.
!	!	!	!	!LO:LB:g=original	!	!	!	!	!	!	!	!	!	!	!	!	!	!	!
=33	=33	=33	=33	=33	=33	=33	=33	=33	=33	=33	=33	=33	=33	=33	=33	=33	=33	=33	=33
!	!	!	!LO:DY:b	!	!	!	!	!	!	!	!	!	!	!	!	!	!	!	!
4FF/	.	8.c\L	p	8.A/L	.	8.f/L	.	1ryy	2r	.	.	1r	.	.	1ryy	1ryy	1ryy	1ryy	1ryy
!	!	!	!	!	!	!	!LO:DY:a:t=p&colon;	!	!	!	!	!	!	!	!	!	!	!	!
.	.	16c\Jk	.	16f/Jk	.	16a/Jk	p	.	.	.	.	.	.	.	.	.	.	.	.
!	!	!	!	!	!LO:DY:b	!	!	!	!	!	!	!	!	!	!	!	!	!	!
8r	.	8c\L	.	16a/LL	p	16cc/LL	.	.	.	.	.	.	.	.	.	.	.	.	.
.	.	.	.	(16g/	.	(16b-/	.	.	.	.	.	.	.	.	.	.	.	.	.
!	!	!	!LO:DY:b	!	!	!	!	!	!	!	!	!	!	!	!	!	!	!	!
8C/	.	8B-\J	f	16B-/)	.	16g/	.	.	.	.	.	.	.	.	.	.	.	.	.
!	!	!	!	!	!	!LO:SIC:s=en	!	!	!	!	!	!	!	!	!	!	!	!	!
.	.	.	.	16G/JJ	.	16e-/JJ)	.	.	.	.	.	.	.	.	.	.	.	.	.
!	!	!	!	!	!	!LO:SIC:s=en	!	!	!	!	!	!	!	!	!	!	!	!	!
!LO:LB:g=original	!	!	!	!	!LO:DY:b	!	!	!	!	!	!	!	!	!	!	!	!	!	!
4C/	.	4B-\	.	4G/	f	4e-/	.	.	4r	.	.	.	.	.	.	.	.	.	.
!	!	!	!	!	!	!	!LO:DY:a:t=pp&colon;	!	!	!	!	!	!	!	!	!	!	!	!
8FF/	.	8c\	.	8A/	.	8f/	pp	.	8r	.	.	.	.	.	.	.	.	.	.
!	!	!	!	!	!LO:DY:b	!	!	!	!	!	!	!	!	!	!	!	!	!	!
8r	.	8r	.	8r	pp	16cc\LL	.	.	16c\LL	li-	.	.	.	.	.	.	.	.	.
.	.	.	.	.	.	16a\JJ	.	.	16A\JJ	.	.	.	.	.	.	.	.	.	.
=34	=34	=34	=34	=34	=34	=34	=34	=34	=34	=34	=34	=34	=34	=34	=34	=34	=34	=34	=34
!	!	!	!LO:DY:b	!	!	!	!	!	!	!	!	!	!	!	!	!	!	!	!
8r	.	(16A/LL	pp	(16f/LL	.	16g/LL	.	1ryy	16G/LL	.	.	1r	.	.	1ryy	1ryy	1ryy	1ryy	1ryy
.	.	16c/)	.	16a/)	.	16f/J	.	.	16F/J	.	.	.	.	.	.	.	.	.	.
!LO:TX:t=P:problem:mixed beam	!	!	!	!	!	!LO:N:vis=8.	!	!	!	!	!	!	!	!	!	!	!	!	!
!	!LO:DY:b	!	!	!	!	!	!	!	!	!	!	!	!	!	!	!	!	!	!
8F\L	pp	(16A/	.	(16f/	.	[8f/J	.	.	8F/J	.	.	.	.	.	.	.	.	.	.
.	.	16c/JJ)	.	16a/JJ)	.	.	.	.	.	.	.	.	.	.	.	.	.	.	.
!	!	!	!	!	!	!	!	!	!LO:TUP:a:problem:klamra łukowa	!	!	!	!	!	!	!	!	!	!
!	!	!	!	!	!	!LO:TUP:a:problem:klamra łukowa	!	!	!LO:TX:t=P:problem:mixed beam	!	!	!	!	!	!	!	!	!	!
8FF/	.	(16A/LL	.	(16f/LL	.	24f/]yy	.	.	24F/LL	.	.	.	.	.	.	.	.	.	.
.	.	.	.	.	.	24gg\LL	.	.	24f\	.	.	.	.	.	.	.	.	.	.
.	.	16c/)	.	16a/)	.	.	.	.	.	.	.	.	.	.	.	.	.	.	.
.	.	.	.	.	.	24ff\JJ	.	.	24e-\JJ	.	.	.	.	.	.	.	.	.	.
!	!	!	!	!	!	!	!	!	!LO:TUP:a:problem:klamra łukowa	!	!	!	!	!	!	!	!	!	!
.	.	.	.	.	.	16qqgg/	.	.	16qqg/	.	.	.	.	.	.	.	.	.	.
8F\J	.	(16B-/	.	(16f/	.	24ff\LL	.	.	24f\	-be-	.	.	.	.	.	.	.	.	.
.	.	.	.	.	.	24ee-\	.	.	24e-\LL	-ra	.	.	.	.	.	.	.	.	.
.	.	16d/JJ)	.	16b-/JJ)	.	.	.	.	.	.	.	.	.	.	.	.	.	.	.
.	.	.	.	.	.	24dd\JJ	.	.	24d\JJ	.	.	.	.	.	.	.	.	.	.
8r	.	(16B-/LL	.	(16f/LL	.	8dd\L	.	.	8d\L	me	.	.	.	.	.	.	.	.	.
.	.	16d/)	.	16b-/)	.	.	.	.	.	.	.	.	.	.	.	.	.	.	.
8F\L	.	(16A/	.	(16f/	.	8cc\J	.	.	8c\J	.	.	.	.	.	.	.	.	.	.
.	.	16c/JJ)	.	16a/JJ)	.	.	.	.	.	.	.	.	.	.	.	.	.	.	.
!	!	!	!	!	!	!LO:TUP:a:problem:klamra łukowa	!	!	!LO:TUP:a:problem:klamra łukowa	!	!	!	!	!	!	!	!	!	!
!	!	!	!	!	!	!	!	!	!LO:LB:g=original	!	!	!	!	!	!	!	!	!	!
8A\	.	(16G/LL	.	(16e-/LL	.	24b-\LL	.	.	24B-\LL	li-	.	.	.	.	.	.	.	.	.
.	.	.	.	.	.	24dd\	.	.	24d\	.	.	.	.	.	.	.	.	.	.
.	.	16B-/)	.	16g/)	.	.	.	.	.	.	.	.	.	.	.	.	.	.	.
.	.	.	.	.	.	24cc\JJ	.	.	24c\JJ	.	.	.	.	.	.	.	.	.	.
!	!	!	!	!	!	!LO:TUP:a:problem:klamra łukowa	!	!	!LO:TUP:a:problem:klamra łukowa	!	!	!	!	!	!	!	!	!	!
.	.	.	.	.	.	16qqee-/	.	.	16qqe-/	.	.	.	.	.	.	.	.	.	.
8E-\J	.	(16G/	.	(16e-/	.	24dd\LL	.	.	24d\	-be-	.	.	.	.	.	.	.	.	.
.	.	.	.	.	.	24cc\	.	.	(24c\	-ra	.	.	.	.	.	.	.	.	.
.	.	16B-/JJ)	.	16g/JJ)	.	.	.	.	.	.	.	.	.	.	.	.	.	.	.
.	.	.	.	.	.	24b-\JJ	.	.	24B-\)	.	.	.	.	.	.	.	.	.	.
=35	=35	=35	=35	=35	=35	=35	=35	=35	=35	=35	=35	=35	=35	=35	=35	=35	=35	=35	=35
8F\L	.	(16G/LL	.	(16e-/LL	.	8b-/L	.	1ryy	8B-\L	me	.	1r	.	.	1ryy	1ryy	1ryy	1ryy	1ryy
.	.	16B-/)	.	16g/)	.	.	.	.	.	.	.	.	.	.	.	.	.	.	.
8FF/J	.	(16G/	.	(16f/	.	8a/J	.	.	8A\J	.	.	.	.	.	.	.	.	.	.
.	.	16B-/JJ)	.	16a/JJ)	.	.	.	.	.	.	.	.	.	.	.	.	.	.	.
8r	.	(16G/LL	.	(16B-/LL	.	(16a/LL	.	.	16A/LL	de	.	.	.	.	.	.	.	.	.
.	.	16B-/)	.	16d/)	.	16g/)	.	.	16G/JJ	.	.	.	.	.	.	.	.	.	.
8BB-/	.	(16G/	.	(16B-/	.	(16g/	.	.	16G/LL	san-	.	.	.	.	.	.	.	.	.
.	.	16B-/JJ)	.	16d/JJ)	.	16f#X/JJ)	.	.	16F#X/JJ	.	.	.	.	.	.	.	.	.	.
!	!	!	!	!	!	!LO:TUP:a:problem:klamra łukowa	!	!	!LO:TUP:a:problem:klamra łukowa	!	!	!	!	!	!	!	!	!	!
!	!	!LO:LB:g=original	!	!	!	!	!	!	!	!	!	!	!	!	!	!	!	!	!
8BB-/L	.	(16G/LL	.	(16B-/LL	.	24g/LL	.	.	24G/LL	.	.	.	.	.	.	.	.	.	.
.	.	.	.	.	.	24f#X/	.	.	24F#X/	.	.	.	.	.	.	.	.	.	.
.	.	16B-/)	.	16d/)	.	.	.	.	.	.	.	.	.	.	.	.	.	.	.
.	.	.	.	.	.	24g/JJ	.	.	24G/JJ	.	.	.	.	.	.	.	.	.	.
!	!	!	!	!	!	!	!	!	!LO:TUP:a:problem:klamra łukowa	!	!	!	!	!	!	!	!	!	!
8BB-/	.	(16G/	.	(16B-/	.	24b-\LL	.	.	24A\LL	.	.	.	.	.	.	.	.	.	.
!	!	!	!	!	!	!LO:TUP:a:problem:klamra łukowa	!	!	!	!	!	!	!	!	!	!	!	!	!
.	.	.	.	.	.	24a\	.	.	24G\	.	.	.	.	.	.	.	.	.	.
.	.	16B-/JJ)	.	16d/JJ)	.	.	.	.	.	.	.	.	.	.	.	.	.	.	.
.	.	.	.	.	.	24b-\JJ	.	.	24A\JJ	.	.	.	.	.	.	.	.	.	.
!	!	!	!	!	!	!LO:LB:g=original	!	!	!	!	!	!	!	!	!	!	!	!	!
!	!	!	!	!	!	!LO:TUP:a:problem:klamra łukowa	!	!	!LO:TUP:a:problem:klamra łukowa	!	!	!	!	!	!	!	!	!	!
8BB-/	.	(16G/LL	.	(16Bn/LL	.	24dd\LL	.	.	24d\LL	.	.	.	.	.	.	.	.	.	.
.	.	.	.	.	.	24cc\	.	.	24c\	.	.	.	.	.	.	.	.	.	.
.	.	16Bn/)	.	16d/)	.	.	.	.	.	.	.	.	.	.	.	.	.	.	.
.	.	.	.	.	.	24b-\JJ	.	.	24B-\JJ	.	.	.	.	.	.	.	.	.	.
!	!	!	!	!	!	!LO:TUP:a:problem:klamra łukowa	!	!	!LO:TUP:a:problem:klamra łukowa	!	!	!	!	!	!	!	!	!	!
8BBn/J	.	(16G/	.	(16B/	.	24a/LL	.	.	24A/LL	.	.	.	.	.	.	.	.	.	.
.	.	.	.	.	.	24g/	.	.	24G/	.	.	.	.	.	.	.	.	.	.
.	.	16B/JJ)	.	16d/JJ)	.	.	.	.	.	.	.	.	.	.	.	.	.	.	.
.	.	.	.	.	.	24fn/JJ	.	.	24Fn/JJ	.	.	.	.	.	.	.	.	.	.
=36	=36	=36	=36	=36	=36	=36	=36	=36	=36	=36	=36	=36	=36	=36	=36	=36	=36	=36	=36
8r	.	8r	.	16.c/LL	.	(16.e-/LL	.	1ryy	16E-/LL	-qu-	.	1r	.	.	1ryy	1ryy	1ryy	1ryy	1ryy
.	.	.	.	.	.	.	.	.	16C/JJ	-i-	.	.	.	.	.	.	.	.	.
.	.	.	.	32e-/K	.	32g/K)	.	.	.	.	.	.	.	.	.	.	.	.	.
8C/L	.	8g\L	.	16.e-/	.	(16.g/	.	.	16G/LL	-ni-	.	.	.	.	.	.	.	.	.
.	.	.	.	.	.	.	.	.	16E-/JJ	.	.	.	.	.	.	.	.	.	.
.	.	.	.	32e-/JJk	.	32cc/JJk)	.	.	.	.	.	.	.	.	.	.	.	.	.
8C/	.	8g\	.	8e-/	.	8cc\	.	.	8c\	-bus	.	.	.	.	.	.	.	.	.
8C/J	.	8g\J	.	16r	.	16r	.	.	16r	.	.	.	.	.	.	.	.	.	.
.	.	.	.	16b-\	.	(32ee-\LLL	.	.	(32e-\LLL	De-	.	.	.	.	.	.	.	.	.
.	.	.	.	.	.	32ff\JJJ)	.	.	32f\JJJ)	.	.	.	.	.	.	.	.	.	.
8r	.	8r	.	(16ee-'\LL	.	16gg'\LL	.	.	(32g\LLL	.	.	.	.	.	.	.	.	.	.
.	.	.	.	.	.	.	.	.	32a\)	.	.	.	.	.	.	.	.	.	.
.	.	.	.	16dd'\	.	(16ff'\	.	.	(32f\	.	.	.	.	.	.	.	.	.	.
.	.	.	.	.	.	.	.	.	32g\JJJ)	.	.	.	.	.	.	.	.	.	.
8C/L	.	8g\L	.	16cc'\	.	16ee-'\	.	.	(32e-\LLL	.	.	.	.	.	.	.	.	.	.
.	.	.	.	.	.	.	.	.	32f\)	.	.	.	.	.	.	.	.	.	.
.	.	.	.	16b-'\	.	16dd'\	.	.	(32d\	.	.	.	.	.	.	.	.	.	.
.	.	.	.	.	.	.	.	.	32e-\JJJ)	.	.	.	.	.	.	.	.	.	.
8C/	.	8g\	.	16a'\	.	16cc'\	.	.	(32c\LLL	.	.	.	.	.	.	.	.	.	.
.	.	.	.	.	.	.	.	.	32d\)	.	.	.	.	.	.	.	.	.	.
.	.	.	.	16g'\	.	16b-'\)	.	.	(32B-\	.	.	.	.	.	.	.	.	.	.
.	.	.	.	.	.	.	.	.	32c\JJJ)	.	.	.	.	.	.	.	.	.	.
!	!	!	!	!	!	!	!	!	!LO:LB:g=original	!	!	!	!	!	!	!	!	!	!
8C/J	.	8g\J	.	16f'\	.	16a'\	.	.	(32A\LLL	.	.	.	.	.	.	.	.	.	.
.	.	.	.	.	.	.	.	.	32B-\)	.	.	.	.	.	.	.	.	.	.
.	.	.	.	16e-'\JJ)	.	16g'\JJ	.	.	(32G\	.	.	.	.	.	.	.	.	.	.
.	.	.	.	.	.	.	.	.	32B-\JJJ)	.	.	.	.	.	.	.	.	.	.
!	!	!	!	!LO:LB:g=original	!	!	!	!	!	!	!	!	!	!	!	!	!	!	!
=37	=37	=37	=37	=37	=37	=37	=37	=37	=37	=37	=37	=37	=37	=37	=37	=37	=37	=37	=37
8r	.	8r	.	16r	.	16r	.	1ryy	16A/LL	.	.	1r	.	.	1ryy	1ryy	1ryy	1ryy	1ryy
.	.	.	.	16f/	.	16a/	.	.	16F/JJ	.	.	.	.	.	.	.	.	.	.
8C/L	.	8a\L	.	16r	.	16r	.	.	16c\LL	.	.	.	.	.	.	.	.	.	.
.	.	.	.	16a/	.	16cc\	.	.	16A\JJ	.	.	.	.	.	.	.	.	.	.
8C/	.	8f\	.	8a/	.	8ff\	.	.	8f\	-us	.	.	.	.	.	.	.	.	.
8C/J	.	8f\J	.	16r	.	16r	.	.	16r	.	.	.	.	.	.	.	.	.	.
.	.	.	.	16a/	.	(32ff\LLL	.	.	(32f\LLL	De-	.	.	.	.	.	.	.	.	.
.	.	.	.	.	.	32gg\JJJ)	.	.	32g\JJJ)	.	.	.	.	.	.	.	.	.	.
8r	.	8r	.	(16ff'\LL	.	16aa'\LL	.	.	(32a\LLL	.	.	.	.	.	.	.	.	.	.
.	.	.	.	.	.	.	.	.	32b-\)	.	.	.	.	.	.	.	.	.	.
.	.	.	.	16ee-'\	.	16gg'\	.	.	(32g\	.	.	.	.	.	.	.	.	.	.
.	.	.	.	.	.	.	.	.	32a\)	.	.	.	.	.	.	.	.	.	.
8C/L	.	8a\L	.	16dd'\	.	16ff'\	.	.	(32f\	.	.	.	.	.	.	.	.	.	.
.	.	.	.	.	.	.	.	.	32g\)	.	.	.	.	.	.	.	.	.	.
.	.	.	.	16cc'\JJ	.	(16ee-'\	.	.	(32e-\	.	.	.	.	.	.	.	.	.	.
.	.	.	.	.	.	.	.	.	32f\)	.	.	.	.	.	.	.	.	.	.
8C/	.	8a\	.	16b-'\LL	.	16dd'\	.	.	(32d\	.	.	.	.	.	.	.	.	.	.
.	.	.	.	.	.	.	.	.	32e-\)	.	.	.	.	.	.	.	.	.	.
.	.	.	.	16a'\	.	16cc'\	.	.	(32c\	.	.	.	.	.	.	.	.	.	.
.	.	.	.	.	.	.	.	.	32d\)	.	.	.	.	.	.	.	.	.	.
8C/J	.	8a\J	.	16g'\	.	16b-'\	.	.	(32B-\	.	.	.	.	.	.	.	.	.	.
.	.	.	.	.	.	.	.	.	32c\)	.	.	.	.	.	.	.	.	.	.
.	.	.	.	16f'\JJ)	.	16a'\JJ)	.	.	(32A\	.	.	.	.	.	.	.	.	.	.
.	.	.	.	.	.	.	.	.	32c\JJJ)	.	.	.	.	.	.	.	.	.	.
=38	=38	=38	=38	=38	=38	=38	=38	=38	=38	=38	=38	=38	=38	=38	=38	=38	=38	=38	=38
8r	.	8r	.	16r	.	16r	.	1ryy	(16B-\LL	.	.	1r	.	.	1ryy	1ryy	1ryy	1ryy	1ryy
.	.	.	.	16g/	.	16b-\	.	.	16G\)	.	.	.	.	.	.	.	.	.	.
8C/L	.	8g\L	.	16r	.	16r	.	.	(16e-\	.	.	.	.	.	.	.	.	.	.
.	.	.	.	16b-\	.	16ee-\	.	.	16c\JJ)	.	.	.	.	.	.	.	.	.	.
8C/	.	8g\	.	8ee-\	.	8gg\	.	.	8g\	-us	.	.	.	.	.	.	.	.	.
8C/J	.	8g\J	.	16r	.	16r	.	.	16r	.	.	.	.	.	.	.	.	.	.
.	.	.	.	(32ee-\LLL	.	(32gg\LLL	.	.	(32g\LLL	De-	.	.	.	.	.	.	.	.	.
.	.	.	.	32ff\JJJ)	.	32aa\JJJ)	.	.	32a\JJJ)	.	.	.	.	.	.	.	.	.	.
8r	.	8r	.	(16gg'\LL	.	16bb-'\LL	.	.	16b-'\LL	.	.	.	.	.	.	.	.	.	.
.	.	.	.	16ff'\	.	(16aa'\	.	.	16a'\	.	.	.	.	.	.	.	.	.	.
8C\L	.	8e-\L	.	16ee-'\	.	16gg'\	.	.	(32g\L	.	.	.	.	.	.	.	.	.	.
.	.	.	.	.	.	.	.	.	32a\)	.	.	.	.	.	.	.	.	.	.
.	.	.	.	16dd'\	.	16ff'\	.	.	(32f\	.	.	.	.	.	.	.	.	.	.
.	.	.	.	.	.	.	.	.	32g\)	.	.	.	.	.	.	.	.	.	.
8D\	.	8f\	.	16cc'\	.	16ee-'\	.	.	(32e-\	.	.	.	.	.	.	.	.	.	.
.	.	.	.	.	.	.	.	.	32f\)	.	.	.	.	.	.	.	.	.	.
.	.	.	.	16b-'\	.	16dd'\	.	.	(32d\	.	.	.	.	.	.	.	.	.	.
.	.	.	.	.	.	.	.	.	32e-\)	.	.	.	.	.	.	.	.	.	.
8E-\J	.	8g\J	.	16a'\	.	16cc'\)	.	.	(32c\	.	.	.	.	.	.	.	.	.	.
.	.	.	.	.	.	.	.	.	32d\)	.	.	.	.	.	.	.	.	.	.
.	.	.	.	16g'\JJ)	.	16b-'\JJ	.	.	(32B-\	.	.	.	.	.	.	.	.	.	.
.	.	.	.	.	.	.	.	.	32c\JJJ)	.	.	.	.	.	.	.	.	.	.
!	!	!	!	!	!	!	!	!	!LO:LB:g=original	!	!	!	!	!	!	!	!	!	!
!	!	!	!	!	!	!LO:LB:g=original	!	!	!	!	!	!	!	!	!	!	!	!	!
=39	=39	=39	=39	=39	=39	=39	=39	=39	=39	=39	=39	=39	=39	=39	=39	=39	=39	=39	=39
!LO:TX:t=P:problem:mixed beam	!	!	!	!	!	!	!	!	!	!	!	!	!	!	!	!	!	!	!
8F\L	.	(16A/LL	.	(16f/LL	.	(16a\LL	.	1ryy	(16A\LL	.	.	1r	.	.	1ryy	1ryy	1ryy	1ryy	1ryy
.	.	16c/)	.	16a/)	.	16ff\JJ)	.	.	16f\JJ)	.	.	.	.	.	.	.	.	.	.
8FF/	.	(16A/	.	(16f/	.	8.ff\L	.	.	8.f\	-us	.	.	.	.	.	.	.	.	.
.	.	16c/JJ)	.	16a/JJ)	.	.	.	.	.	.	.	.	.	.	.	.	.	.	.
8F\J	.	(16A/LL	.	(16f/LL	.	.	.	.	.	.	.	.	.	.	.	.	.	.	.
.	.	16c/)	.	16a/)	.	16ee-X\Jk	.	.	(16e-X\	de-	.	.	.	.	.	.	.	.	.
8r	.	(16A/	.	(16f/	.	(16dd\LL	.	.	16d\LL	.	.	.	.	.	.	.	.	.	.
.	.	16c/JJ)	.	16a/JJ)	.	16cc#X\JJ)	.	.	16c#X\JJ)	.	.	.	.	.	.	.	.	.	.
8r	.	(16B-/LL	.	(16f/LL	.	(16cc#\LL	.	.	16c#\LL	.	.	.	.	.	.	.	.	.	.
.	.	16d/)	.	16b-/)	.	16dd\JJ)	.	.	16d\JJ	.	.	.	.	.	.	.	.	.	.
8BB-/L	.	(16B-/	.	(16f/	.	8.dd\L	.	.	8.d\	-us	.	.	.	.	.	.	.	.	.
.	.	16d/JJ)	.	16b-/JJ)	.	.	.	.	.	.	.	.	.	.	.	.	.	.	.
8D/	.	(16B-/LL	.	(16f/LL	.	.	.	.	.	.	.	.	.	.	.	.	.	.	.
.	.	16d/)	.	16b-/)	.	16ff\Jk	.	.	16f`\LL	Sa-	.	.	.	.	.	.	.	.	.
.	.	.	.	.	.	16qqee-/	.	.	.	.	.	.	.	.	.	.	.	.	.
8BB-/J	.	(16B-/	.	(16f/	.	16dd\LL	.	.	(16d\	.	.	.	.	.	.	.	.	.	.
.	.	16d/JJ)	.	16b-/JJ)	.	16b-\JJ	.	.	16B-\JJ)	.	.	.	.	.	.	.	.	.	.
!LO:LB:g=original	!	!	!	!	!	!	!	!	!	!	!	!	!	!	!	!	!	!	!
=40	=40	=40	=40	=40	=40	=40	=40	=40	=40	=40	=40	=40	=40	=40	=40	=40	=40	=40	=40
!	!	!LO:TX:t=P:problem:mixed beam	!	!	!	!LO:TUP:a:problem:klamra łukowa	!	!	!	!	!	!	!	!	!	!	!	!	!
8AA/L	.	16A/LL	.	16a\LL	.	24ccn\LL	.	1ryy	8cn\	-lu-	.	2r	.	.	1ryy	1ryy	1ryy	1ryy	1ryy
.	.	.	.	.	.	24ff\	.	.	.	.	.	.	.	.	.	.	.	.	.
.	.	16f\	.	16cc\JJ	.	.	.	.	.	.	.	.	.	.	.	.	.	.	.
.	.	.	.	.	.	24ee-\JJ	.	.	.	.	.	.	.	.	.	.	.	.	.
!	!	!	!	!LO:TUP:a:problem:klamra łukowa	!	!LO:TUP:a:problem:klamra łukowa	!	!	!LO:TUP:a:problem:klamra łukowa	!	!	!	!	!	!	!	!	!	!
.	.	.	.	.	.	.	.	.	16qqe-/	.	.	.	.	.	.	.	.	.	.
8BB-/	.	16d\	.	24b-\LL	.	24dd\LL	.	.	24d\LL	-tis	.	.	.	.	.	.	.	.	.
.	.	.	.	24a\	.	24cc\	.	.	24c\	.	.	.	.	.	.	.	.	.	.
.	.	16B-\JJ	.	.	.	.	.	.	.	.	.	.	.	.	.	.	.	.	.
.	.	.	.	24g\JJ	.	24b-\JJ	.	.	24B-\JJ	.	.	.	.	.	.	.	.	.	.
8C/	.	8c\L	.	8f/L	.	8a/L	.	.	8A/L	me-	.	.	.	.	.	.	.	.	.
8CC/J	.	8c\J	.	8c/J	.	8g/J	.	.	8G/J	.	.	.	.	.	.	.	.	.	.
!	!	!	!	!	!	!LO:TX:t=P:problem:zbędna kreska taktowa	!	!	!	!	!	!	!	!	!	!	!	!	!
.	.	.	.	.	.	8qqg/	.	.	.	.	.	.	.	.	.	.	.	.	.
!	!	!LO:LB:g=original	!	!	!	!	!	!	!	!	!	!	!	!	!	!	!	!	!
!	!	!	!LO:DY:b	!	!	!	!	!	!	!	!	!	!	!	!	!	!	!	!
8.F\L	.	8.c\L	f	4A/	.	4f/	.	.	4F/	-a	.	4r	.	.	.	.	.	.	.
!	!LO:DY:b	!	!	!	!	!	!	!	!	!	!	!	!	!	!	!	!	!	!
16G\Jk	f	16e-X\Jk	.	.	.	.	.	.	.	.	.	.	.	.	.	.	.	.	.
16F\LL	.	16d\LL	.	4r	.	8r	.	.	4r	.	.	8r	.	.	.	.	.	.	.
16E-X\	.	16c\	.	.	.	.	.	.	.	.	.	.	.	.	.	.	.	.	.
16D\	.	16B-\	.	.	.	8f/	.	.	.	.	.	8f\	et	.	.	.	.	.	.
16C\JJ	.	16A\JJ	.	.	.	.	.	.	.	.	.	.	.	.	.	.	.	.	.
!	!	!	!	!LO:LB:g=original	!	!	!	!	!	!	!	!	!	!	!	!	!	!	!
=41	=41	=41	=41	=41	=41	=41	=41	=41	=41	=41	=41	=41	=41	=41	=41	=41	=41	=41	=41
.	.	.	.	.	.	16qqa/LL	.	.	.	.	.	.	.	.	.	.	.	.	.
.	.	.	.	.	.	16qqb-/	.	.	.	.	.	.	.	.	.	.	.	.	.
.	.	.	.	.	.	16qqcc/JJ	.	.	.	.	.	16qqcc/	.	.	.	.	.	.	.
!	!LO:DY:b	!	!	!	!	!	!	!	!	!	!	!	!	!	!	!	!	!	!
8r	p	8r	.	8r	.	8b-\L	.	1ryy	1r	.	.	8b-'\	ex-	.	1ryy	1ryy	1ryy	1ryy	1ryy
!	!	!	!LO:DY:b	!	!	!	!	!	!	!	!	!	!	!	!	!	!	!	!
8BB-/L	.	8f\L	p	8d/L	.	8b-\J	.	.	.	.	.	8b-'\	-ul-	.	.	.	.	.	.
8BB-/	.	8f\	.	8d/	.	(32b-\LLL	.	.	.	.	.	32b-\LLL	-ta-	.	.	.	.	.	.
.	.	.	.	.	.	32a\	.	.	.	.	.	32a\	.	.	.	.	.	.	.
.	.	.	.	.	.	32dd\	.	.	.	.	.	32dd\	.	.	.	.	.	.	.
.	.	.	.	.	.	32cc\JJJ)	.	.	.	.	.	32cc\JJJ	.	.	.	.	.	.	.
8BB-/J	.	8f\J	.	8d/J	.	16b-\LL	.	.	.	.	.	16b-\LL	.	.	.	.	.	.	.
.	.	.	.	.	.	16f\JJ	.	.	.	.	.	16f\JJ	.	.	.	.	.	.	.
8r	.	8r	.	8r	.	32g/LLL	.	.	.	.	.	32g\LLL	.	.	.	.	.	.	.
.	.	.	.	.	.	(32a-X/	.	.	.	.	.	(32a-X\	.	.	.	.	.	.	.
.	.	.	.	.	.	32g/	.	.	.	.	.	32g\	.	.	.	.	.	.	.
.	.	.	.	.	.	32f#X/JJ)	.	.	.	.	.	32f#X\JJJ)	.	.	.	.	.	.	.
8BB-/L	.	8g\L	.	8e-/L	.	8g/J	.	.	.	.	.	8g\	-bit	.	.	.	.	.	.
8BB-/	.	8g\	.	8e-/	.	8r	.	.	.	.	.	8r	.	.	.	.	.	.	.
8BB-/J	.	8g\J	.	8e-/J	.	8g/	.	.	.	.	.	8g\	et	.	.	.	.	.	.
!	!	!	!	!	!	!	!	!	!	!	!	!LO:LB:g=original	!	!	!	!	!	!	!
=42	=42	=42	=42	=42	=42	=42	=42	=42	=42	=42	=42	=42	=42	=42	=42	=42	=42	=42	=42
8r	.	8r	.	8r	.	(16g\LL	.	1ryy	1r	.	.	(16g\LL	ex-	.	1ryy	1ryy	1ryy	1ryy	1ryy
.	.	.	.	.	.	16b-\	.	.	.	.	.	16b-\)	.	.	.	.	.	.	.
8BB-/L	.	8g\L	.	8e-/L	.	16b-\	.	.	.	.	.	(16b-\	.	.	.	.	.	.	.
.	.	.	.	.	.	16ee-X\JJ)	.	.	.	.	.	16ee-X\JJ)	.	.	.	.	.	.	.
8BB-/	.	8g\	.	8e-/	.	16ee-\LL	.	.	.	.	.	(16ee-\LL	-ul-	.	.	.	.	.	.
.	.	.	.	.	.	(16b-\	.	.	.	.	.	16b-\)	.	.	.	.	.	.	.
8BB-/J	.	8g\J	.	8e-/J	.	16b-\	.	.	.	.	.	(16b-\	.	.	.	.	.	.	.
.	.	.	.	.	.	16g\JJ)	.	.	.	.	.	16g\JJ)	.	.	.	.	.	.	.
8r	.	8r	.	8r	.	32fn/LLL	.	.	.	.	.	32fn\LLL	-ta-	.	.	.	.	.	.
.	.	.	.	.	.	32g/	.	.	.	.	.	(32g\	.	.	.	.	.	.	.
.	.	.	.	.	.	32f/	.	.	.	.	.	32f\	.	.	.	.	.	.	.
.	.	.	.	.	.	32en/JJ	.	.	.	.	.	32en\JJJ)	.	.	.	.	.	.	.
8BB-/L	.	8f\L	.	8d/L	.	8f/J	.	.	.	.	.	8f\	-bit	.	.	.	.	.	.
8BB-/	.	8f\	.	8d/	.	8r	.	.	.	.	.	8r	.	.	.	.	.	.	.
8BB-/J	.	8f\J	.	8d/J	.	8f/	.	.	.	.	.	8f\	et	.	.	.	.	.	.
!	!	!	!	!	!	!LO:LB:g=original	!	!	!	!	!	!	!	!	!	!	!	!	!
=43	=43	=43	=43	=43	=43	=43	=43	=43	=43	=43	=43	=43	=43	=43	=43	=43	=43	=43	=43
8r	.	8r	.	8r	.	16f/LL	.	1ryy	1r	.	.	(16f\LL	ex-	.	1ryy	1ryy	1ryy	1ryy	1ryy
.	.	.	.	.	.	(16b-/	.	.	.	.	.	16b-\)	.	.	.	.	.	.	.
8BB-/L	.	8f\L	.	8d/L	.	16b-/	.	.	.	.	.	(16b-\	.	.	.	.	.	.	.
.	.	.	.	.	.	16dd/JJ)	.	.	.	.	.	16dd\JJ)	.	.	.	.	.	.	.
8BB-/	.	8f\	.	8d/	.	16dd\LL	.	.	.	.	.	16dd\LL	.	.	.	.	.	.	.
.	.	.	.	.	.	(16b-\	.	.	.	.	.	16b-\JJ	.	.	.	.	.	.	.
8BB-/J	.	8f\J	.	8d/J	.	16b-\	.	.	.	.	.	16b-\LL	-ul-	.	.	.	.	.	.
.	.	.	.	.	.	16f\JJ)	.	.	.	.	.	16f\JJ	.	.	.	.	.	.	.
8r	.	8r	.	8r	.	32e-X/LLL	.	.	.	.	.	32e-X\LLL	-ta-	.	.	.	.	.	.
.	.	.	.	.	.	(32f/	.	.	.	.	.	32f\	.	.	.	.	.	.	.
.	.	.	.	.	.	32e-/	.	.	.	.	.	32e-\	.	.	.	.	.	.	.
.	.	.	.	.	.	32d/JJ)	.	.	.	.	.	32d\JJJ	.	.	.	.	.	.	.
8AA/L	.	8f\L	.	8c/L	.	8e-/J	.	.	.	.	.	8e-\	-bit	.	.	.	.	.	.
8AA/	.	8f\	.	8c/	.	8r	.	.	.	.	.	8r	.	.	.	.	.	.	.
8AA/J	.	8f\J	.	8c/J	.	8e-X/	.	.	.	.	.	8e-\	lin-	.	.	.	.	.	.
=44	=44	=44	=44	=44	=44	=44	=44	=44	=44	=44	=44	=44	=44	=44	=44	=44	=44	=44	=44
8r	.	8r	.	8r	.	16e-/LL	.	1ryy	1r	.	.	16e-\LL	.	.	1ryy	1ryy	1ryy	1ryy	1ryy
.	.	.	.	.	.	(16an/	.	.	.	.	.	16an\	.	.	.	.	.	.	.
8AA/L	.	8f\L	.	8c/L	.	16a/	.	.	.	.	.	(16a\	.	.	.	.	.	.	.
.	.	.	.	.	.	16cc/JJ)	.	.	.	.	.	16cc\JJ)	.	.	.	.	.	.	.
8AA/	.	8f\	.	8c/	.	(16cc/LL	.	.	.	.	.	(16cc\LL	-gu-	.	.	.	.	.	.
.	.	.	.	.	.	16a/	.	.	.	.	.	16a\JJ)	.	.	.	.	.	.	.
8AA/J	.	8f\J	.	8c/J	.	16a/)	.	.	.	.	.	(16a\LL	-a	.	.	.	.	.	.
.	.	.	.	.	.	16e-/JJ	.	.	.	.	.	16e-\JJ)	.	.	.	.	.	.	.
!	!	!	!	!	!	!LO:TX:t=P:problem:mixed beam	!	!	!	!	!	!	!	!	!	!	!	!	!
8BB-/L	.	(16B-/LL	.	(16d/LL	.	16d/LL	.	.	.	.	.	16d\LL	me-	.	.	.	.	.	.
.	.	16d/)	.	16f/)	.	16b-\JJ	.	.	.	.	.	16b-\JJ	.	.	.	.	.	.	.
8B-\J	.	(16B-/	.	(16d/	.	8.b-\L	.	.	.	.	.	8.b-\	-a	.	.	.	.	.	.
.	.	16d/JJ)	.	16f/JJ)	.	.	.	.	.	.	.	.	.	.	.	.	.	.	.
8r	.	(16B-/LL	.	(16d/LL	.	.	.	.	.	.	.	.	.	.	.	.	.	.	.
!	!	!	!	!	!	!	!	!	!	!	!	!LO:TX:t=P:problem:brak łuku od 16a-, pojawia się przy 16g	!	!	!	!	!	!	!
.	.	16d/)	.	16f/)	.	16a-X\Jk	.	.	.	.	.	(16a-X\	lin-	.	.	.	.	.	.
!	!	!	!	!	!	!	!	!	!	!	!	!LO:LB:g=original	!	!	!	!	!	!	!
8D\	.	(16B-/	.	(16d/	.	16g\LL	.	.	.	.	.	16g\)	-gu-	.	.	.	.	.	.
.	.	16d/JJ)	.	16f/JJ)	.	16a-\JJ	.	.	.	.	.	16a-\	-a	.	.	.	.	.	.
=45	=45	=45	=45	=45	=45	=45	=45	=45	=45	=45	=45	=45	=45	=45	=45	=45	=45	=45	=45
!LO:TX:t=P:problem:mixed beam	!	!	!	!	!	!	!	!	!	!	!	!	!	!	!	!	!	!	!
8E-\L	.	(16B-/LL	.	(16e-/LL	.	(16a/LL	.	1ryy	1r	.	.	16a\LL	me-	.	1ryy	1ryy	1ryy	1ryy	1ryy
.	.	16e-/)	.	16g/)	.	16g/JJ	.	.	.	.	.	16g\JJ	.	.	.	.	.	.	.
!	!	!	!	!	!	!LO:N:sic=8.	!	!	!	!	!	!	!	!	!	!	!	!	!
8EE-/J	.	(16B-/	.	(16e-/	.	4g/)	.	.	.	.	.	8.g\	-a	.	.	.	.	.	.
.	.	16e-/JJ)	.	16g/JJ)	.	.	.	.	.	.	.	.	.	.	.	.	.	.	.
8r	.	(16B-/LL	.	(16e-/LL	.	.	.	.	.	.	.	.	.	.	.	.	.	.	.
.	.	16e-/)	.	16g/)	.	.	.	.	.	.	.	(16cc\LL	ju-	.	.	.	.	.	.
!	!	!	!	!	!	!LO:TUP:a:problem:klamra łukowa	!	!	!	!	!	!	!	!	!	!	!	!	!
8E-\	.	(16B-/	.	(16e-/	.	24b-/LL	.	.	.	.	.	16an\)	.	.	.	.	.	.	.
.	.	.	.	.	.	24an/	.	.	.	.	.	.	.	.	.	.	.	.	.
.	.	16e-/JJ)	.	16g/JJ)	.	.	.	.	.	.	.	16g\JJ	.	.	.	.	.	.	.
.	.	.	.	.	.	24g/JJ	.	.	.	.	.	.	.	.	.	.	.	.	.
!LO:TX:t=P:problem:mixed beam	!	!	!	!	!	!LO:TUP:a:problem:klamra łukowa	!	!	!	!	!	!	!	!	!	!	!	!	!
8D\L	.	16B-\LL	.	16d/LL	.	24f/LL	.	.	.	.	.	24f\LL	-sti-	.	.	.	.	.	.
.	.	.	.	.	.	24b-/	.	.	.	.	.	24b-\	.	.	.	.	.	.	.
.	.	16d\JJ	.	16f/JJ	.	.	.	.	.	.	.	.	.	.	.	.	.	.	.
.	.	.	.	.	.	24dd/JJ	.	.	.	.	.	24a\JJ	.	.	.	.	.	.	.
!	!	!	!	!LO:TUP:a:problem:klamra łukowa	!	!LO:TUP:a:problem:klamra łukowa	!	!	!	!	!	!LO:TUP:a:problem:klamra łukowa	!	!	!	!	!	!	!
*	*	*Xtuplet	*	*	*	*	*	*	*	*	*	*	*	*	*	*	*	*	*
8E-\	.	24e-\LL	.	24g/LL	.	24ee-\LL	.	.	.	.	.	24g\LL	-tiam	.	.	.	.	.	.
.	.	24f\	.	24f/	.	24dd\	.	.	.	.	.	24f\	.	.	.	.	.	.	.
.	.	24g\JJ	.	24e-/JJ	.	24cc\JJ	.	.	.	.	.	24e-'\JJ	.	.	.	.	.	.	.
*	*	*tuplet	*	*	*	*	*	*	*	*	*	*	*	*	*	*	*	*	*
!	!	!LO:LB:g=original	!	!	!	!	!	!	!	!	!	!	!	!	!	!	!	!	!
!	!	!	!	!	!	!	!	!	!	!	!	!	!	!	!	!	!	!	!
8F\	.	8f\L	.	8d/L	.	8b-\L	.	.	.	.	.	8d\	tu-	.	.	.	.	.	.
8FF/J	.	8F/J	.	8c/J	.	8a\J	.	.	.	.	.	8c\	-am	.	.	.	.	.	.
=46	=46	=46	=46	=46	=46	=46	=46	=46	=46	=46	=46	=46	=46	=46	=46	=46	=46	=46	=46
!	!	!	!	!LO:TX:b:i:t=poco	!	!LO:TX:b:i:t=poco	!	!	!	!	!	!	!	!	!	!	!	!	!
!	!	!	!	!LO:TX:a:i:t=Dulce	!	!LO:TUP:a:problem:klamra łukowa	!	!	!LO:TUP:a:problem:klamra łukowa	!	!	!LO:TUP:a:problem:klamra łukowa	!	!	!	!	!	!	!
!	!	!	!	!	!LO:DY:b	!	!	!	!	!	!	!	!	!	!	!	!	!	!
!	!	!	!LO:DY:b	!	!	!	!	!	!	!	!	!	!	!	!	!	!	!	!
8r	.	(16B-/LL	p	(16d/LL	p	24dd\LL	.	1ryy	24B-\LL	et	.	24d\LL	et	.	1ryy	1ryy	1ryy	1ryy	1ryy
.	.	.	.	.	.	24ee-\	.	.	24c\	.	.	24e-\	.	.	.	.	.	.	.
!	!	!LO:TX:b:i:t=poco	!	!	!	!	!	!	!	!	!	!	!	!	!	!	!	!	!
.	.	16d/)	.	16f/)	.	.	.	.	.	.	.	.	.	.	.	.	.	.	.
!	!	!	!	!	!	!LO:TX:a:i:t=dolce	!	!	!	!	!	!	!	!	!	!	!	!	!
.	.	.	.	.	.	24ff\JJ	.	.	24d\JJ	.	.	24f\JJ	.	.	.	.	.	.	.
8BB-/L	.	(16B-/	.	(16d/	.	8.ff\L	.	.	8.d\L	ex-	.	8.f\L	ex-	.	.	.	.	.	.
.	.	16d/JJ)	.	16f/JJ)	.	.	.	.	.	.	.	.	.	.	.	.	.	.	.
8D/	.	(16B-/LL	.	(16d/LL	.	.	.	.	.	.	.	.	.	.	.	.	.	.	.
.	.	16d/)	.	16f/)	.	16dd\Jk	.	.	16B-\Jk	.	.	16d\Jk	.	.	.	.	.	.	.
8BB-/J	.	(16B-/	.	(16d/	.	16ee-\LL	.	.	16c\LL	-ul-	.	16e-\LL	-ul-	.	.	.	.	.	.
.	.	16d/JJ)	.	16f/JJ)	.	16ff\JJ	.	.	16d\JJ	.	.	16f\JJ	.	.	.	.	.	.	.
!	!	!	!	!	!	!LO:TUP:a:problem:klamra łukowa	!	!	!LO:TUP:a:problem:klamra łukowa	!	!	!	!	!	!	!	!	!	!
!	!	!	!	!LO:LB:g=original	!	!	!	!	!	!	!	!	!	!	!	!	!	!	!
*	*	*	*	*	*	*	*	*	*	*	*	*Xtuplet	*	*	*	*	*	*	*
8r	.	(16B-/LL	.	(16e-/LL	.	24gg\LL	.	.	24e-\LL	-ta-	.	24g\LL	-ta-	.	.	.	.	.	.
.	.	.	.	.	.	24aa\	.	.	24f\	.	.	24a\	.	.	.	.	.	.	.
.	.	16e-/)	.	16g/)	.	.	.	.	.	.	.	.	.	.	.	.	.	.	.
.	.	.	.	.	.	24bb-\JJ	.	.	24g\JJ	.	.	24b-\JJ	.	.	.	.	.	.	.
!	!	!	!	!	!	!LO:N:vis=16.	!	!	!	!	!	!	!	!	!	!	!	!	!
*	*	*	*	*	*	*	*	*	*	*	*	*tuplet	*	*	*	*	*	*	*
8E-\L	.	(16B-/	.	(16e-/	.	8.bb-\L	.	.	8.g\	-bit	.	8.b-\	-bit	.	.	.	.	.	.
.	.	16e-/JJ)	.	16g/JJ)	.	.	.	.	.	.	.	.	.	.	.	.	.	.	.
8G\	.	(16B-/LL	.	(16e-/LL	.	.	.	.	.	.	.	.	.	.	.	.	.	.	.
!	!	!	!	!	!	!LO:N:vis=32	!	!	!	!	!	!	!	!	!	!	!	!	!
.	.	16e-/)	.	16g/)	.	16bb-\Jk	.	.	16g\	et	.	16b-\	et	.	.	.	.	.	.
8E-\J	.	(16B-/	.	(16e-/	.	16aa\LL	.	.	16f\	ex-	.	16a\	ex-	.	.	.	.	.	.
.	.	16e-/JJ)	.	16g/JJ)	.	16gg\JJ	.	.	16e-\	-ul-	.	16g\	-ul-	.	.	.	.	.	.
!	!	!	!	!	!	!	!	!	!LO:LB:g=original	!	!	!	!	!	!	!	!	!	!
!LO:LB:g=original	!	!	!	!	!	!LO:LB:g=original	!	!	!	!	!	!	!	!	!	!	!	!	!
=47	=47	=47	=47	=47	=47	=47	=47	=47	=47	=47	=47	=47	=47	=47	=47	=47	=47	=47	=47
!	!	!	!	!	!	!LO:TUP:a:problem:klamra łukowa	!	!	!LO:TUP:a:problem:klamra łukowa	!	!	!LO:TUP:a:problem:klamra łukowa	!	!	!	!	!	!	!
8r	.	(16B-/LL	.	(16d/LL	.	24ff\LL	.	1ryy	24d\LL	-ta-	.	24f\LL	-ta-	.	1ryy	1ryy	1ryy	1ryy	1ryy
.	.	.	.	.	.	24ee-\	.	.	24c\	.	.	24e-\	.	.	.	.	.	.	.
.	.	16d/)	.	16f/)	.	.	.	.	.	.	.	.	.	.	.	.	.	.	.
.	.	.	.	.	.	24dd\JJ	.	.	24B-\JJ	.	.	24d\JJ	.	.	.	.	.	.	.
8B-\L	.	(16B-/	.	(16d/	.	8.dd\L	.	.	8.B-\	-bit	.	8.d\	-bit	.	.	.	.	.	.
.	.	16d/JJ)	.	16f/JJ)	.	.	.	.	.	.	.	.	.	.	.	.	.	.	.
8A\	.	(16A/LL	.	(16c/LL	.	.	.	.	.	.	.	.	.	.	.	.	.	.	.
.	.	16c/)	.	16e-/)	.	16cc\Jk	.	.	16A\LL	lin-	.	(16c\	lin-	.	.	.	.	.	.
8F\J	.	(16A/	.	(16c/	.	16gg\LL	.	.	16e-\JJ	.	.	16g\)	.	.	.	.	.	.	.
!	!	!	!	!	!	!	!	!	!	!	!	!LO:LB:g=original	!	!	!	!	!	!	!
.	.	16c/JJ)	.	16e-/JJ)	.	16ee-\JJ	.	.	16c\	-gua	.	16e-\	-gua	.	.	.	.	.	.
8B-\L	.	(16B-/LL	.	(16d/LL	.	8ee-\L	.	.	8c\L	me-	.	8e-'\L	me-	.	.	.	.	.	.
.	.	16d/)	.	16f/)	.	.	.	.	.	.	.	.	.	.	.	.	.	.	.
8F\	.	(16B-/	.	(16d/	.	32dd\LL	.	.	32B-\LL	.	.	32d\LL	.	.	.	.	.	.	.
.	.	.	.	.	.	32ee-\	.	.	32c\	.	.	(32e-\	.	.	.	.	.	.	.
.	.	16d/JJ)	.	16f/JJ)	.	32dd\	.	.	32B-\	.	.	32d\	.	.	.	.	.	.	.
.	.	.	.	.	.	32ee-\JJJ	.	.	32c\JJJ	.	.	32e-\JJJ)	.	.	.	.	.	.	.
8D\	.	(16B-/LL	.	(16d/LL	.	8ff\	.	.	8d\	-a	.	8f\	-a	.	.	.	.	.	.
!	!	!	!LO:DY:b	!	!	!	!	!	!	!	!	!	!	!	!	!	!	!	!
.	.	16d/)	pp	16f/)	.	.	.	.	.	.	.	.	.	.	.	.	.	.	.
!	!	!	!	!	!	!	!	!	!	!	!	!	!	!LO:DY:a	!	!	!	!	!
!	!	!	!	!	!	!	!LO:DY:b:t=p&colon;	!	!	!	!	!	!	!LO:DY:t=p&colon;	!	!	!	!	!
8BB-\J	.	(16B-/	.	16d/	.	16r	p	.	16r	.	.	16r	.	p	.	.	.	.	.
!	!	!	!	!	!LO:DY:b	!	!	!	!	!	!	!	!	!	!	!	!	!	!
.	.	16d/JJ)	.	16f/JJ	pp	16ee-\	.	.	16c\	lin-	.	16e-\	lin-	.	.	.	.	.	.
=48	=48	=48	=48	=48	=48	=48	=48	=48	=48	=48	=48	=48	=48	=48	=48	=48	=48	=48	=48
*	*	*	*	*	*	*	*	*	*Xtuplet	*	*	*	*	*	*	*	*	*	*
!	!	!	!	!	!	!LO:TUP:a:problem:klamra łukowa	!	!	!	!	!	!	!	!	!	!	!	!	!
8r	.	(16B-/LL	.	(16d/LL	.	24dd\LL	.	1ryy	24B-\LL	.	.	24d\LL	.	.	1ryy	1ryy	1ryy	1ryy	1ryy
.	.	.	.	.	.	24ee-\	.	.	24c\	.	.	24e-\	.	.	.	.	.	.	.
.	.	16d/)	.	16f/)	.	.	.	.	.	.	.	.	.	.	.	.	.	.	.
.	.	.	.	.	.	24ff\JJ	.	.	24d\JJ	.	.	24f\JJ	.	.	.	.	.	.	.
8BB-/L	.	(16B-/	.	(16d/	.	8.ff\L	.	.	8.d\L	-gu-	.	8.f\L	.	.	.	.	.	.	.
.	.	16d/JJ)	.	16f/JJ)	.	.	.	.	.	.	.	.	.	.	.	.	.	.	.
8D/	.	(16B-/LL	.	(16d/LL	.	.	.	.	.	.	.	.	.	.	.	.	.	.	.
.	.	16d/)	.	16f/)	.	16dd\Jk	.	.	16B-\Jk	-a	.	16d\Jk	.	.	.	.	.	.	.
8BB-/J	.	(16B-/	.	(16d/	.	16ee-\LL	.	.	16c\LL	.	.	16e-\LL	-gu-	.	.	.	.	.	.
.	.	16d/JJ)	.	16f/JJ)	.	16ff\JJ	.	.	16d\JJ	.	.	16f\JJ	-a	.	.	.	.	.	.
!	!	!	!	!	!	!LO:TUP:a:problem:klamra łukowa	!	!	!LO:TUP:a:problem:klamra łukowa	!	!	!	!	!	!	!	!	!	!
*	*	*	*	*	*	*	*	*	*tuplet	*	*	*Xtuplet	*	*	*	*	*	*	*
8r	.	(16B-/LL	.	(16e-/LL	.	24gg\LL	.	.	24e-\LL	me-	.	24g\LL	me-	.	.	.	.	.	.
.	.	.	.	.	.	24aa\	.	.	24f\	.	.	24a\	.	.	.	.	.	.	.
.	.	16e-/)	.	16g/)	.	.	.	.	.	.	.	.	.	.	.	.	.	.	.
.	.	.	.	.	.	24bb-\JJ	.	.	24g\JJ	.	.	24b-\JJ	.	.	.	.	.	.	.
*	*	*	*	*	*	*	*	*	*	*	*	*tuplet	*	*	*	*	*	*	*
8E-\L	.	(16B-/	.	(16e-/	.	8.bb-\L	.	.	4g\	-a	.	8.b-\	-a	.	.	.	.	.	.
.	.	16e-/JJ)	.	16g/JJ)	.	.	.	.	.	.	.	.	.	.	.	.	.	.	.
8G\	.	(16B-/LL	.	16e-/LL	.	.	.	.	.	.	.	.	.	.	.	.	.	.	.
.	.	16e-/)	.	16g/	.	16bb-\J	.	.	.	.	.	(16b-\	ju-	.	.	.	.	.	.
8E-\J	.	(16B-/	.	16e-/	.	16aa\LL	.	.	16f\LL	jus-	.	16a\LL	.	.	.	.	.	.	.
.	.	16e-/JJ)	.	16g/JJ	.	16gg\JJ	.	.	16e-\JJ	.	.	16g\JJ)	.	.	.	.	.	.	.
=49	=49	=49	=49	=49	=49	=49	=49	=49	=49	=49	=49	=49	=49	=49	=49	=49	=49	=49	=49
!LO:TX:t=P:problem:mixed beam	!	!LO:TX:t=P:problem:mixed beam	!	!LO:TX:t=P:problem:mixed beam	!	!	!	!	!	!	!	!	!	!	!	!	!	!	!
8D\L	.	16B-/LL	.	16d/LL	.	8ff\L	.	1ryy	8d\	-ti-	.	8f\L	-sti-	.	1ryy	1ryy	1ryy	1ryy	1ryy
.	.	16b-\	.	16dd\JJ	.	.	.	.	.	.	.	.	.	.	.	.	.	.	.
!	!	!	!	!LO:TUP:a:problem:klamra łukowa	!	!LO:TUP:a:problem:klamra łukowa	!	!	!	!	!	!	!	!	!	!	!	!	!
8E-\	.	16g\	.	24ee-\LL	.	24gg\L	.	.	24e-\LL	.	.	24g\L	.	.	.	.	.	.	.
.	.	.	.	24dd\	.	24ff\	.	.	24d\	.	.	24f\	.	.	.	.	.	.	.
.	.	16e-\JJ	.	.	.	.	.	.	.	.	.	.	.	.	.	.	.	.	.
.	.	.	.	24cc\JJ	.	24ee-\JJ	.	.	24c\JJ	.	.	24e-\JJ	.	.	.	.	.	.	.
8F\	.	8f\L	.	8b-\L	.	8dd\L	.	.	8B-\	-ti-	.	8d\	-ti-	.	.	.	.	.	.
8FF/J	.	8f\J	.	8a\J	.	8cc\J	.	.	8A\	-am	.	8c\	-am	.	.	.	.	.	.
4BB-/	.	8B-\L	.	8b-/L	.	8dd\L	.	.	8d\L	Ju-	.	8b-\L	Ju-	.	.	.	.	.	.
.	.	8c\	.	(16a/L	.	(32cc\LL	.	.	32c\LL	.	.	16a\L	.	.	.	.	.	.	.
.	.	.	.	.	.	32dd\)	.	.	32d\	.	.	.	.	.	.	.	.	.	.
.	.	.	.	16g/JJ)	.	(32b-\	.	.	32B-\	.	.	16g\JJ	.	.	.	.	.	.	.
.	.	.	.	.	.	32cc\)	.	.	32c\	.	.	.	.	.	.	.	.	.	.
8r	.	8d\	.	(16f/LL	.	(32a\	.	.	32A\	.	.	16f\LL	.	.	.	.	.	.	.
.	.	.	.	.	.	32b-\)	.	.	32B-\	.	.	.	.	.	.	.	.	.	.
.	.	.	.	16e-/)	.	(32g\	.	.	32G\	.	.	16e-\	.	.	.	.	.	.	.
.	.	.	.	.	.	32a\)	.	.	32A\	.	.	.	.	.	.	.	.	.	.
8E-\	.	8e-\J	.	(16d/	.	(32f\	.	.	32F\	.	.	16d\	.	.	.	.	.	.	.
.	.	.	.	.	.	32g\)	.	.	32G\	.	.	.	.	.	.	.	.	.	.
.	.	.	.	16c/JJ)	.	(32e-\	.	.	32E-\	.	.	16c\JJ	.	.	.	.	.	.	.
.	.	.	.	.	.	32f\JJJ)	.	.	32F\JJJ	.	.	.	.	.	.	.	.	.	.
!	!	!LO:LB:g=original	!	!	!	!	!	!	!	!	!	!	!	!	!	!	!	!	!
=50	=50	=50	=50	=50	=50	=50	=50	=50	=50	=50	=50	=50	=50	=50	=50	=50	=50	=50	=50
!LO:TX:t=P:problem:mixed beam	!	!	!	!LO:TX:t=P:problem:mixed beam	!	!	!	!	!	!	!	!	!	!	!	!	!	!	!
8D\L	.	8f\L	.	16B-/LL	.	16d/LL	.	1ryy	16D/LL	-sti-	.	16d\LL	-sti-	.	1ryy	1ryy	1ryy	1ryy	1ryy
.	.	.	.	16b-\JJ	.	16ff\JJ	.	.	16f\JJ	.	.	16b-\JJ	.	.	.	.	.	.	.
!	!	!	!	!	!	!LO:TUP:a:problem:klamra łukowa	!	!	!	!	!	!	!	!	!	!	!	!	!
.	.	.	.	.	.	.	.	.	8qqf/	.	.	.	.	.	.	.	.	.	.
8E-\	.	24e-\L	.	24g/LL	.	24ee-\LL	.	.	24e-\LL	-ti-	.	24g\LL	-ti-	.	.	.	.	.	.
.	.	24f\	.	24f/	.	24dd\	.	.	24d\JJ	.	.	24f\JJ	.	.	.	.	.	.	.
.	.	24g\JJ	.	24e-/JJ	.	24cc\JJ	.	.	24c\	-am	.	24e-\	-am	.	.	.	.	.	.
!	!	!	!	!	!	!	!	!	!	!	!	!LO:LB:g=original	!	!	!	!	!	!	!
8F\	.	8f\L	.	8d/L	.	8b-\L	.	.	8B-\L	tu-	.	(8d\L	tu-	.	.	.	.	.	.
8FF/J	.	8e-\J	.	8c/J	.	8a\J	.	.	8A\J	.	.	8c\J)	.	.	.	.	.	.	.
4FF/	.	4e-\	.	4c/	.	4a\	.	.	4At\	-am	.	4c\	-am	.	.	.	.	.	.
!	!	!	!	!	!	!	!LO:DY:a:t=for&colon;	!	!LO:N:vis=8	!	!	!	!	!	!	!	!	!	!
8BB-/	.	8f\	.	8d/	.	8b-\L	f	.	4B-\	.	.	8d\	.	.	.	.	.	.	.
!	!	!	!	!	!LO:DY:b:t=ffort	!	!	!	!	!	!	!	!	!	!	!	!	!	!
8r	.	8r	.	8r	ff	16ee-\L	.	.	.	.	.	8r	.	.	.	.	.	.	.
.	.	.	.	.	.	16cc\JJ	.	.	.	.	.	.	.	.	.	.	.	.	.
!	!	!	!	!	!	!LO:LB:g=original	!	!	!	!	!	!	!	!	!	!	!	!	!
!	!	!	!	!LO:LB:g=original	!	!	!	!	!	!	!	!	!	!	!	!	!	!	!
=51	=51	=51	=51	=51	=51	=51	=51	=51	=51	=51	=51	=51	=51	=51	=51	=51	=51	=51	=51
!	!	!	!	!	!	!	!	!	!	!	!	!	!	!	!	!	!	!	!
.	.	.	.	.	.	8qqb-/	.	.	.	.	.	.	.	.	.	.	.	.	.
!	!	!	!	!	!LO:DY:b:t=fort	!	!	!	!	!	!	!	!	!	!	!	!	!	!
!	!	!	!LO:DY:b	!	!	!	!	!	!	!	!	!	!	!	!	!	!	!	!
!	!LO:DY:b	!	!	!	!	!	!	!	!	!	!	!	!	!	!	!	!	!	!
8r	ff	(16A/LL	ff	(16e-/LL	f	16a/LL	.	1ryy	1r	.	.	1r	.	.	1ryy	1ryy	1ryy	1ryy	1ryy
.	.	16c/)	.	16f/)	.	16a/	.	.	.	.	.	.	.	.	.	.	.	.	.
8F\L	.	(16A/	.	(16e-/	.	16a/	.	.	.	.	.	.	.	.	.	.	.	.	.
.	.	16c/JJ)	.	16f/JJ)	.	16a/JJ	.	.	.	.	.	.	.	.	.	.	.	.	.
8F\	.	(16A/LL	.	(16e-/LL	.	8a/L	.	.	.	.	.	.	.	.	.	.	.	.	.
.	.	16c/)	.	16f/)	.	.	.	.	.	.	.	.	.	.	.	.	.	.	.
8F\J	.	(16A/	.	(16e-/	.	16cc/L	.	.	.	.	.	.	.	.	.	.	.	.	.
.	.	16c/JJ)	.	16f/JJ)	.	16a/JJ	.	.	.	.	.	.	.	.	.	.	.	.	.
8r	.	(16B-/LL	.	(16d/LL	.	16b-\LL	.	.	.	.	.	.	.	.	.	.	.	.	.
.	.	16d/)	.	16f/)	.	16dd\	.	.	.	.	.	.	.	.	.	.	.	.	.
8BB-/L	.	(16B-/	.	(16d/	.	16ff\	.	.	.	.	.	.	.	.	.	.	.	.	.
.	.	16d/JJ)	.	16f/JJ)	.	16ff\JJ	.	.	.	.	.	.	.	.	.	.	.	.	.
!	!	!	!	!	!	!LO:TX:t=P:problem:tr = tr:	!	!	!	!	!	!	!	!	!	!	!	!	!
8BB-/	.	(16B-/LL	.	(16d/LL	.	8ffT\L	.	.	.	.	.	.	.	.	.	.	.	.	.
!	!	!	!LO:DY:b	!	!	!	!	!	!	!	!	!	!	!	!	!	!	!	!
.	.	16d/)	p	16f/)	.	.	.	.	.	.	.	.	.	.	.	.	.	.	.
8BB-/J	.	(16B-/	.	(16d/	.	16ee-\L	.	.	.	.	.	.	.	.	.	.	.	.	.
.	.	16d/JJ)	.	16f/JJ)	.	16cc\JJ	.	.	.	.	.	.	.	.	.	.	.	.	.
=52	=52	=52	=52	=52	=52	=52	=52	=52	=52	=52	=52	=52	=52	=52	=52	=52	=52	=52	=52
!	!	!	!	!	!	!	!LO:DY:b:t=p&colon;	!	!	!	!	!	!	!	!	!	!	!	!
.	.	.	.	.	.	8qqb-/	p	.	.	.	.	.	.	.	.	.	.	.	.
!	!	!	!	!	!LO:DY:b	!	!	!	!	!	!	!	!	!	!	!	!	!	!
8r	.	(16A/LL	.	(16e-/LL	p	16a/LL	.	1ryy	1r	.	.	1r	.	.	1ryy	1ryy	1ryy	1ryy	1ryy
.	.	16c/)	.	16f/)	.	16a/	.	.	.	.	.	.	.	.	.	.	.	.	.
8F\L	.	(16A/	.	(16e-/	.	16a/	.	.	.	.	.	.	.	.	.	.	.	.	.
.	.	16c/JJ)	.	16f/JJ)	.	16a/JJ	.	.	.	.	.	.	.	.	.	.	.	.	.
8F\	.	(16A/LL	.	(16e-/LL	.	8a/L	.	.	.	.	.	.	.	.	.	.	.	.	.
.	.	16c/)	.	16f/)	.	.	.	.	.	.	.	.	.	.	.	.	.	.	.
8F\J	.	(16A/	.	(16e-/	.	16cc/L	.	.	.	.	.	.	.	.	.	.	.	.	.
.	.	16c/JJ)	.	16f/JJ)	.	16a/JJ	.	.	.	.	.	.	.	.	.	.	.	.	.
8r	.	(16B-/LL	.	(16d/LL	.	16b-\LL	.	.	.	.	.	.	.	.	.	.	.	.	.
.	.	16d/)	.	16f/)	.	16dd\	.	.	.	.	.	.	.	.	.	.	.	.	.
8BB-/L	.	(16B-/	.	(16d/	.	16ff\	.	.	.	.	.	.	.	.	.	.	.	.	.
.	.	16d/JJ)	.	16f/JJ)	.	16ff\JJ	.	.	.	.	.	.	.	.	.	.	.	.	.
8BB-/	.	(16B-/LL	.	(16d/LL	.	8ff\L	.	.	.	.	.	.	.	.	.	.	.	.	.
.	.	16d/)	.	16f/)	.	.	.	.	.	.	.	.	.	.	.	.	.	.	.
8BB-/J	.	(16f/	.	(16d/	.	16dd\L	.	.	.	.	.	.	.	.	.	.	.	.	.
!	!	!	!	!	!	!	!LO:DY:b:t=f&colon;	!	!	!	!	!	!	!	!	!	!	!	!
.	.	16f/JJ)	.	16c/JJ)	.	16ee-\JJ	f	.	.	.	.	.	.	.	.	.	.	.	.
=53	=53	=53	=53	=53	=53	=53	=53	=53	=53	=53	=53	=53	=53	=53	=53	=53	=53	=53	=53
!LO:TX:t=P:problem:mixed beam	!	!	!	!LO:TX:t=P:problem:mixed beam	!	!	!	!	!	!	!	!	!	!	!	!	!	!	!
!	!	!	!	!	!LO:DY:b	!	!	!	!	!	!	!	!	!	!	!	!	!	!
8BB-\L	.	8f\L	.	16d/LL	f	16.ff\LL	.	1ryy	1r	.	.	1r	.	.	1ryy	1ryy	1ryy	1ryy	1ryy
.	.	.	.	16dd\JJ	.	.	.	.	.	.	.	.	.	.	.	.	.	.	.
.	.	.	.	.	.	32bb-\JJk	.	.	.	.	.	.	.	.	.	.	.	.	.
.	.	.	.	.	.	16qqaa/	.	.	.	.	.	.	.	.	.	.	.	.	.
!	!	!	!	!	!	!LO:TUP:a:problem:klamra łukowa	!	!	!	!	!	!	!	!	!	!	!	!	!
*	*	*Xtuplet	*	*	*	*	*	*	*	*	*	*	*	*	*	*	*	*	*
8E-\	.	24e-\L	.	24ee-\LL	.	24gg\LL	.	.	.	.	.	.	.	.	.	.	.	.	.
.	.	24f\	.	24dd\	.	24ff\	.	.	.	.	.	.	.	.	.	.	.	.	.
.	.	24g\JJ	.	24cc\JJ	.	24ee-\JJ	.	.	.	.	.	.	.	.	.	.	.	.	.
*	*	*	*	*	*	*	*	*	*	*	*	*	*	*	*	*	*	*	*
8F\	.	8f\L	.	8b-\L	.	8dd\L	.	.	.	.	.	.	.	.	.	.	.	.	.
8FF/J	.	8f\J	.	8a\J	.	8cc\J	.	.	.	.	.	.	.	.	.	.	.	.	.
!	!	!LO:TX:b:i:t=Dolce	!	!LO:TX:a:i:t=Dolce	!	!LO:TX:a:i:t=dolce	!	!	!	!	!	!	!	!	!	!	!	!	!
8r	.	(16.d\LL	.	(16.b-\LL	.	16.dd\LL	.	.	.	.	.	.	.	.	.	.	.	.	.
.	.	32e-\K	.	32cc\K)	.	32ee-\K	.	.	.	.	.	.	.	.	.	.	.	.	.
!LO:TX:a:i:t=Dolce	!	!	!	!	!	!	!	!	!	!	!	!	!	!	!	!	!	!	!
8BB-/L	.	16f\)	.	16dd\	.	16ff\	.	.	.	.	.	.	.	.	.	.	.	.	.
.	.	16f\JJ	.	16dd\JJ	.	16ff\JJ	.	.	.	.	.	.	.	.	.	.	.	.	.
8D/	.	8f'\L	.	8dd`\L	.	8ff\L	.	.	.	.	.	.	.	.	.	.	.	.	.
8BB-/J	.	(16e-\L	.	(16cc\L	.	16ee-\L	.	.	.	.	.	.	.	.	.	.	.	.	.
.	.	16d\JJ)	.	16b-\JJ)	.	16dd\JJ	.	.	.	.	.	.	.	.	.	.	.	.	.
=54	=54	=54	=54	=54	=54	=54	=54	=54	=54	=54	=54	=54	=54	=54	=54	=54	=54	=54	=54
8r	.	(16.g\LL	.	16.ee-\LL	.	16.gg\LL	.	1ryy	1r	.	.	1r	.	.	1ryy	1ryy	1ryy	1ryy	1ryy
.	.	32a\K	.	32ff\K	.	32aa\K	.	.	.	.	.	.	.	.	.	.	.	.	.
8E-\L	.	16b-\)	.	16gg\	.	16.bb-\	.	.	.	.	.	.	.	.	.	.	.	.	.
.	.	16b-\JJ	.	16gg\JJ	.	.	.	.	.	.	.	.	.	.	.	.	.	.	.
.	.	.	.	.	.	32bb-\JJk	.	.	.	.	.	.	.	.	.	.	.	.	.
!	!	!LO:LB:g=original	!	!	!	!	!	!	!	!	!	!	!	!	!	!	!	!	!
.	.	16qqcc/	.	.	.	8qqccc/	.	.	.	.	.	.	.	.	.	.	.	.	.
8G\	.	8b-\L	.	8gg\L	.	8bb-\L	.	.	.	.	.	.	.	.	.	.	.	.	.
8E-\J	.	16a\L	.	16ff\L	.	16aa\L	.	.	.	.	.	.	.	.	.	.	.	.	.
.	.	16g\JJ	.	16ee-\JJ	.	16gg\JJ	.	.	.	.	.	.	.	.	.	.	.	.	.
!LO:LB:g=original	!	!	!	!	!	!	!	!	!	!	!	!	!	!	!	!	!	!	!
!LO:TX:t=P:problem:mixed beam	!	!	!	!	!	!	!	!	!	!	!	!	!	!	!	!	!	!	!
8D\L	.	8f\L	.	16dd\LL	.	8ff\L	.	.	.	.	.	.	.	.	.	.	.	.	.
.	.	.	.	16ee-\	.	.	.	.	.	.	.	.	.	.	.	.	.	.	.
!	!	!	!	!	!	!LO:TUP:a:problem:klamra łukowa	!	!	!	!	!	!	!	!	!	!	!	!	!
8E-\	.	24g\L	.	16dd\	.	24gg\L	.	.	.	.	.	.	.	.	.	.	.	.	.
.	.	24f\	.	.	.	24ff\	.	.	.	.	.	.	.	.	.	.	.	.	.
.	.	.	.	16cc\JJ	.	.	.	.	.	.	.	.	.	.	.	.	.	.	.
.	.	24e-\JJ	.	.	.	24ee-\JJ	.	.	.	.	.	.	.	.	.	.	.	.	.
8F\	.	8d\L	.	8b-\L	.	8dd\L	.	.	.	.	.	.	.	.	.	.	.	.	.
!	!	!	!	!	!LO:DY:b	!	!	!	!	!	!	!	!	!	!	!	!	!	!
8FF/J	.	8c\J	.	8a\J	p	8cc\J	.	.	.	.	.	.	.	.	.	.	.	.	.
=55	=55	=55	=55	=55	=55	=55	=55	=55	=55	=55	=55	=55	=55	=55	=55	=55	=55	=55	=55
!	!	!	!	!	!	!	!LO:DY:a:t=p&colon;	!	!	!	!	!	!	!	!	!	!	!	!
!	!LO:DY:b	!	!	!	!	!	!	!	!	!	!	!	!	!	!	!	!	!	!
8r	p	8r	.	(16B-/LL	.	(16d/LL	p	1ryy	1r	.	.	1r	.	.	1ryy	1ryy	1ryy	1ryy	1ryy
.	.	.	.	16c/	.	16e-/	.	.	.	.	.	.	.	.	.	.	.	.	.
!	!	!	!LO:DY:b:t=p&colon;	!	!	!	!	!	!	!	!	!	!	!	!	!	!	!	!
8BB-/L	.	8f\L	p	16d/)	.	16f/	.	.	.	.	.	.	.	.	.	.	.	.	.
.	.	.	.	16d/JJ	.	16f/JJ)	.	.	.	.	.	.	.	.	.	.	.	.	.
!	!	!	!	!	!	!LO:LB:g=original	!	!	!	!	!	!	!	!	!	!	!	!	!
.	.	.	.	.	.	8qqg/	.	.	.	.	.	.	.	.	.	.	.	.	.
8D/	.	8f\	.	8d/L	.	8f`/L	.	.	.	.	.	.	.	.	.	.	.	.	.
8BB-/J	.	8f\J	.	16c/L	.	(16e-/L	.	.	.	.	.	.	.	.	.	.	.	.	.
.	.	.	.	16B-/JJ	.	16d/JJ)	.	.	.	.	.	.	.	.	.	.	.	.	.
8r	.	8r	.	(16e-/LL	.	16g/LL	.	.	.	.	.	.	.	.	.	.	.	.	.
.	.	.	.	16f/	.	(16a/	.	.	.	.	.	.	.	.	.	.	.	.	.
8E-\L	.	8B-/L	.	16g/	.	16b-/	.	.	.	.	.	.	.	.	.	.	.	.	.
.	.	.	.	16g/JJ)	.	16b-/JJ)	.	.	.	.	.	.	.	.	.	.	.	.	.
.	.	.	.	.	.	8qqcc/	.	.	.	.	.	.	.	.	.	.	.	.	.
!	!	!	!	!LO:LB:g=original	!	!	!	!	!	!	!	!	!	!	!	!	!	!	!
8G\	.	8B-/	.	8g/L	.	8b-`/L	.	.	.	.	.	.	.	.	.	.	.	.	.
!	!	!	!LO:DY:b:t=f&colon;	!	!	!	!	!	!	!	!	!	!	!	!	!	!	!	!
8E-\J	.	8B-/J	f	16f/L	.	(16a/L	.	.	.	.	.	.	.	.	.	.	.	.	.
.	.	.	.	16e-/JJ	.	16g/JJ)	.	.	.	.	.	.	.	.	.	.	.	.	.
=56	=56	=56	=56	=56	=56	=56	=56	=56	=56	=56	=56	=56	=56	=56	=56	=56	=56	=56	=56
!LO:TX:t=P:problem:mixed beam	!	!	!	!	!	!	!LO:DY:a	!	!	!	!	!	!	!	!	!	!	!	!
!	!	!	!	!	!	!	!LO:DY:b:t=f&colon;	!	!	!	!	!	!	!	!	!	!	!	!
!	!	!	!	!	!LO:DY:b	!	!	!	!	!	!	!	!	!	!	!	!	!	!
!	!LO:DY:b	!	!	!	!	!	!	!	!	!	!	!	!	!	!	!	!	!	!
8D\L	f	8B-/L	.	8d/L	f	(16f/LL	f	1ryy	1r	.	.	1r	.	.	1ryy	1ryy	1ryy	1ryy	1ryy
.	.	.	.	.	.	16b-/JJ)	.	.	.	.	.	.	.	.	.	.	.	.	.
!	!	!	!	!LO:TUP:a:problem:klamra łukowa	!	!	!	!	!	!	!	!	!	!	!	!	!	!	!
.	.	.	.	.	.	8qqa/	.	.	.	.	.	.	.	.	.	.	.	.	.
8E-\	.	8e-\J	.	24e-/L	.	(24g/LL	.	.	.	.	.	.	.	.	.	.	.	.	.
.	.	.	.	24d/	.	24f/	.	.	.	.	.	.	.	.	.	.	.	.	.
.	.	.	.	24c/JJ	.	24e-/JJ)	.	.	.	.	.	.	.	.	.	.	.	.	.
!	!LO:DY:b	!	!	!	!	!	!	!	!	!	!	!	!	!	!	!	!	!	!
8F\	p	8f\L	.	8B-/L	.	8d/L	.	.	.	.	.	.	.	.	.	.	.	.	.
!	!	!	!LO:DY:b:t=p&colon;	!	!	!	!	!	!	!	!	!	!	!	!	!	!	!	!
8FF/J	.	8f\J	p	8A/J	.	8c/J	.	.	.	.	.	.	.	.	.	.	.	.	.
!	!	!	!	!LO:TX:t=P:problem:mixed beam	!	!	!	!	!	!	!	!	!	!	!	!	!	!	!
!	!	!	!	!	!LO:DY:b	!	!LO:DY:b:t=p&colon;	!	!	!	!	!	!	!	!	!	!	!	!
4BB-/	.	8.f\L	.	8.d/L	p	8.b-\L	p	.	.	.	.	.	.	.	.	.	.	.	.
!	!	!	!LO:DY:b:t=f&colon;	!	!	!	!	!	!	!	!	!	!	!	!	!	!	!	!
.	.	16f\K	f	16b-\Jk	.	16dd\Jk	.	.	.	.	.	.	.	.	.	.	.	.	.
!	!	!	!	!LO:TX:t=P:problem:mixed beam	!	!	!	!	!	!	!	!	!	!	!	!	!	!	!
!	!	!	!	!	!LO:DY:b	!	!LO:DY:b:t=f&colon;	!	!	!	!	!	!	!	!	!	!	!	!
8r	.	8f\	.	16dd\LL	f	16ff\LL	f	.	.	.	.	.	.	.	.	.	.	.	.
.	.	.	.	16cc\	.	(16ee-\	.	.	.	.	.	.	.	.	.	.	.	.	.
8F\	.	8c\J	.	16f/	.	16cc\	.	.	.	.	.	.	.	.	.	.	.	.	.
.	.	.	.	16e-/JJ	.	16a\JJ)	.	.	.	.	.	.	.	.	.	.	.	.	.
=57	=57	=57	=57	=57	=57	=57	=57	=57	=57	=57	=57	=57	=57	=57	=57	=57	=57	=57	=57
!	!	!LO:N:vis=8	!	!	!	!	!	!	!	!	!	!LO:TX:a:t=Finis	!	!	!	!	!	!	!
4F\	.	4c\	.	4e-/	.	4a/	.	1ryy	1r	.	.	1r	.	.	1ryy	1ryy	1ryy	1ryy	1ryy
!	!	!	!	!LO:TX:a:t=finis	!	!	!	!	!	!	!	!	!	!	!	!	!	!	!
8B-\L	.	8f\L	.	8d/	.	8b-/	.	.	.	.	.	.	.	.	.	.	.	.	.
!LO:TX:a:t=finis	!	!	!	!	!	!LO:TX:a:t=Finis	!	!	!	!	!	!	!	!	!	!	!	!	!
8F\J	.	8c\J	.	8r;	.	8r	.	.	.	.	.	.	.	.	.	.	.	.	.
!	!	!LO:TX:a:t=finis	!	!	!	!	!	!	!	!	!	!	!	!	!	!	!	!	!
4BB-/	.	4A/	.	2r	.	4r;	.	.	.	.	.	.	.	.	.	.	.	.	.
4r	.	4r	.	.	.	8r	.	.	.	.	.	.	.	.	.	.	.	.	.
.	.	.	.	.	.	8f/	.	.	.	.	.	.	.	.	.	.	.	.	.
==	==	==	==	==	==	==	==	==	==	==	==	==	==	==	==	==	==	==	==
*-	*-	*-	*-	*-	*-	*-	*-	*-	*-	*-	*-	*-	*-	*-	*-	*-	*-	*-	*-
!!!system-decoration: [(s1,s2)][(s3,s4)][(s5,s6,s7,s8)][(s9,s10,s11)]s12
!!!ENC: Marcin Jachim
!!!END: 2020-10-31
!!!ENC: Natalia Wrzos
!!!END: 2022-04-11
!!!YEC: Copyright 2022 Narodowy Instytut Fryderyka Chopina (https://polishscores.org)
!!!YEM: License CC-BY-4.0 (https://creativecommons.org/licenses/by/4.0)
